<?xml version="1.0" encoding="UTF-8"?>
<map version="1.8" tiledversion="1.8.2" orientation="orthogonal" renderorder="right-down" width="104" height="17" tilewidth="16" tileheight="16" infinite="0" nextlayerid="40" nextobjectid="99">
 <properties>
  <property name="camera"  value="room"/>
  <property name="ground_top" type="int" value="176"/>
  <property name="ground_bottom" type="int" value="272"/>
 </properties>
 <tileset firstgid="1" source="tiles.tsx"/>
 <layer id="1" name="suelo" width="104" height="17">
  <data encoding="csv">
0,0,0,0,0,0,0,0,0,0,0,0,0,0,0,0,0,0,0,0,0,0,0,0,0,0,0,0,0,0,0,0,0,0,0,0,0,0,0,0,0,0,0,0,0,0,0,0,0,0,0,0,0,0,0,0,0,0,0,0,0,0,0,0,0,0,0,0,0,0,0,0,0,0,0,0,0,0,0,0,0,0,0,0,0,0,0,0,0,0,0,0,0,0,0,0,0,0,0,0,0,0,0,0,
0,0,0,0,0,0,0,0,0,0,0,0,0,0,0,0,0,0,0,0,0,0,0,0,0,0,0,0,0,0,0,0,0,0,0,0,0,0,0,0,0,0,0,0,0,0,0,0,0,0,0,0,0,0,0,0,0,0,0,0,0,0,0,0,0,0,0,0,0,0,0,0,0,0,0,0,0,0,0,0,0,0,0,0,0,0,0,0,0,0,0,0,0,0,0,0,0,0,0,0,0,0,0,0,
0,0,0,0,0,0,0,0,0,0,0,0,0,0,0,0,0,0,0,0,0,0,0,0,0,0,0,0,0,0,0,0,0,0,0,0,0,0,0,0,0,0,0,0,0,0,0,0,0,0,0,0,0,0,0,0,0,0,0,0,0,0,0,0,0,0,0,0,0,0,0,0,0,0,0,0,0,0,0,0,0,0,0,0,0,0,0,0,0,0,0,0,0,0,0,0,0,0,0,0,0,0,0,0,
0,0,0,0,0,0,0,0,0,0,0,0,0,0,0,0,0,0,0,0,0,0,0,0,0,0,0,0,0,0,0,0,0,0,0,0,0,0,0,0,0,0,0,0,0,0,0,0,0,0,0,0,0,0,0,0,0,0,0,0,0,0,0,0,0,0,0,0,0,0,0,0,0,0,0,0,0,0,0,0,0,0,0,0,0,0,0,0,0,0,0,0,0,0,0,0,0,0,0,0,0,0,0,0,
0,0,0,0,0,0,0,0,0,0,0,0,0,0,0,0,0,0,0,0,0,0,0,0,0,0,0,0,0,0,0,0,0,0,0,0,0,0,0,0,0,0,0,0,0,0,0,0,0,0,0,0,0,0,0,0,0,0,0,0,0,0,0,0,0,0,0,0,0,0,0,0,0,0,0,0,0,0,0,0,0,0,0,0,0,0,0,0,0,0,0,0,0,0,0,0,0,0,0,0,0,0,0,0,
0,0,0,0,0,0,0,0,0,0,0,0,0,0,0,0,0,0,0,0,0,0,0,0,0,0,0,0,0,0,0,0,0,0,0,0,0,0,0,0,0,0,0,0,0,0,0,0,0,0,0,0,0,0,0,0,0,0,0,0,0,0,0,0,0,0,0,0,0,0,0,0,0,0,0,0,0,0,0,0,0,0,0,0,0,0,0,0,0,0,0,0,0,0,0,0,0,0,0,0,0,0,0,0,
0,0,0,0,0,0,0,0,0,0,0,0,0,0,0,0,0,0,0,0,0,0,0,0,0,0,0,0,0,0,0,0,0,0,0,0,0,0,0,0,0,0,0,0,0,0,0,0,0,0,0,0,0,0,0,0,0,0,0,0,0,0,0,0,0,0,0,0,0,0,0,0,0,0,0,0,0,0,0,0,0,0,0,0,0,0,0,0,0,0,0,0,0,0,0,0,0,0,0,0,0,0,0,0,
0,0,0,0,0,0,0,0,0,0,0,0,0,0,0,0,0,0,0,0,0,0,0,0,0,0,0,0,0,0,0,0,0,0,0,0,0,0,0,0,0,0,0,0,0,0,0,0,0,0,0,0,0,0,0,0,0,0,0,0,0,0,0,0,0,0,0,0,0,0,0,0,0,0,0,0,0,0,0,0,0,0,0,0,0,0,0,0,0,0,0,0,0,0,0,0,0,0,0,0,0,0,0,0,
0,0,0,0,0,0,0,0,0,0,0,0,0,0,0,0,0,0,0,0,0,0,0,0,0,0,0,0,0,0,0,0,0,0,0,0,0,0,0,0,0,0,0,0,0,0,0,0,0,0,0,0,0,0,0,0,0,0,0,0,0,0,0,0,0,0,0,0,0,0,0,0,0,0,0,0,0,0,0,0,0,0,0,0,0,0,0,0,0,0,0,0,0,0,0,0,0,0,0,0,0,0,0,0,
0,0,0,0,0,0,0,0,0,0,0,0,0,0,0,0,0,0,0,0,0,0,0,0,0,0,0,0,0,0,0,0,0,0,0,0,0,0,0,0,0,0,0,0,0,0,0,0,0,0,0,0,0,0,0,0,0,0,0,0,0,0,0,0,0,0,0,0,0,0,0,0,0,0,0,0,0,0,0,0,0,0,0,0,0,0,0,0,0,0,0,0,0,0,0,0,0,0,0,0,0,0,0,0,
0,0,0,0,0,0,0,0,0,0,0,0,0,0,0,0,0,0,0,0,0,0,0,0,0,0,0,0,0,0,0,0,0,0,0,0,0,0,0,0,0,0,0,0,0,0,0,0,0,0,0,0,0,0,0,0,0,0,0,0,0,0,0,0,0,0,0,0,0,0,0,0,0,0,0,0,0,0,0,0,0,0,0,0,0,0,0,0,0,0,0,0,0,0,0,0,0,0,0,0,0,0,0,0,
1,1,1,1,2,14,14,15,14,14,15,14,14,15,14,14,15,14,14,15,14,14,1,4,1,1,2,3,2,2,1,2,1,2,1,1,21,21,21,21,21,21,21,2,2,1,2,2,1,1,1,4,1,1,2,1,1,2,1,2,1,25,25,25,25,25,25,25,25,1,2,2,1,1,4,1,1,2,2,1,1,3,2,1,1,1,1,2,2,2,1,2,1,2,2,1,1,2,2,2,1,1,1,1,
2,7,7,7,7,14,15,14,14,15,14,14,15,14,14,15,14,14,15,14,14,15,12,11,12,11,2,7,7,7,7,7,1,2,2,1,17,17,17,17,17,17,17,2,4,2,1,2,12,11,12,11,2,7,7,7,7,7,1,4,1,25,25,25,25,25,25,25,25,1,1,1,2,1,12,11,12,11,1,7,7,7,7,7,1,1,1,2,1,1,2,1,2,1,1,1,1,2,2,1,12,11,12,11,
2,7,7,7,7,15,14,14,15,14,14,15,14,14,15,14,14,15,14,14,15,14,11,12,11,12,1,7,7,7,7,7,3,2,1,1,17,17,17,17,17,17,17,2,2,1,2,2,11,12,11,12,2,7,7,7,7,7,2,2,3,25,25,25,25,25,25,25,25,2,1,2,3,1,11,12,11,12,1,7,7,7,7,7,2,2,1,2,4,1,2,1,2,2,2,2,1,4,1,2,11,12,11,12,
1,7,7,7,7,14,14,15,14,14,15,14,14,15,14,14,15,14,14,15,14,14,12,11,12,11,2,7,7,7,7,7,1,1,2,4,25,25,25,25,25,25,25,2,1,2,1,1,12,11,12,11,1,7,7,7,7,7,4,2,4,25,25,25,25,25,25,25,25,2,1,2,2,2,12,11,12,11,2,7,7,7,7,7,1,1,2,1,1,1,1,1,1,1,1,1,2,1,2,1,12,11,12,11,
1,7,7,7,7,14,15,14,14,15,14,14,15,14,14,15,14,14,15,14,14,15,11,12,11,12,1,7,7,7,7,7,2,1,1,2,25,25,25,25,25,25,25,2,2,4,1,2,11,12,11,12,1,7,7,7,7,7,1,2,2,30,29,30,29,30,29,30,29,1,1,2,2,1,11,12,11,12,1,7,7,7,7,7,2,1,1,1,2,1,4,3,2,2,2,1,2,3,1,1,11,12,11,12,
1,2,1,2,2,15,14,14,15,14,14,15,14,14,15,14,14,15,14,14,15,14,4,2,2,2,2,2,4,1,2,3,1,1,2,1,25,25,25,25,25,25,25,2,1,2,1,1,1,2,2,2,2,1,4,1,1,1,2,2,1,29,30,29,30,29,30,29,30,2,4,2,1,1,2,3,2,2,1,2,2,1,2,1,1,1,1,2,2,1,1,1,2,2,1,3,1,1,1,1,2,1,1,2
  </data>
 </layer>
 <layer id="2" name="fachada" width="104" height="17">
  <data encoding="csv">
0,0,0,0,0,0,0,0,0,0,0,0,0,0,0,0,0,0,0,0,0,0,0,0,0,0,0,0,0,0,0,0,0,0,0,0,0,0,0,0,0,0,0,0,0,0,0,0,0,0,0,0,0,0,0,0,0,0,0,0,0,0,0,0,0,0,0,0,0,0,0,0,0,0,0,0,0,0,0,0,0,0,0,0,0,0,0,0,0,0,0,0,0,0,0,0,0,0,0,0,0,0,0,0,
0,0,0,0,0,0,0,0,0,0,0,0,0,0,0,0,0,0,0,0,0,0,0,0,0,0,0,0,0,0,0,0,0,0,0,0,0,0,0,0,0,0,0,0,0,0,0,0,0,0,0,0,0,0,0,0,0,0,0,0,0,0,0,0,0,0,0,0,0,0,0,0,0,0,0,0,0,0,0,0,0,0,0,0,0,0,0,0,0,0,0,0,0,0,0,0,0,0,0,0,0,0,0,0,
0,0,0,0,0,0,0,0,0,0,0,0,0,0,0,0,0,0,0,0,0,0,0,0,0,0,0,0,0,0,0,0,0,0,0,0,0,0,0,0,0,0,0,0,0,0,0,0,0,0,0,0,0,0,0,0,0,0,0,0,0,0,0,0,0,0,0,0,0,0,0,0,0,0,0,0,0,0,0,0,0,0,0,0,0,0,0,0,0,0,0,0,0,0,0,0,0,0,0,0,0,0,0,0,
0,0,0,0,0,0,0,0,0,0,0,0,0,0,0,0,0,0,0,0,0,0,0,0,0,0,0,0,0,0,0,0,0,0,0,0,0,0,0,0,0,0,0,0,0,0,0,0,0,0,0,0,0,0,0,0,0,0,0,0,0,0,0,0,0,0,0,0,0,0,0,0,0,0,0,0,0,0,0,0,0,0,0,0,0,0,0,0,0,0,0,0,0,0,0,0,0,0,0,0,0,0,0,0,
0,0,0,0,0,0,0,0,0,0,0,0,0,0,0,0,0,0,0,0,0,0,0,0,0,0,0,0,0,0,0,0,0,0,0,0,0,0,0,0,0,0,0,0,0,0,0,0,0,0,0,0,0,0,0,0,0,0,0,0,0,0,0,0,0,0,0,0,0,0,0,0,0,0,0,0,0,0,0,0,0,0,0,0,0,0,0,0,0,0,0,0,0,0,0,0,0,0,0,0,0,0,0,0,
0,0,0,0,0,0,0,0,0,0,0,0,0,0,0,0,0,0,0,0,0,0,0,0,0,0,0,0,0,0,0,0,0,0,0,0,0,0,0,0,0,0,0,0,0,0,0,0,0,0,0,0,0,0,0,0,0,0,0,0,0,0,0,0,0,0,0,0,0,0,0,0,0,0,0,0,0,0,0,0,0,0,0,0,0,0,0,0,0,0,0,0,0,0,0,0,0,0,0,0,0,0,0,0,
0,0,0,0,0,0,0,0,0,0,0,0,0,0,0,0,0,0,0,0,0,0,0,0,0,0,0,0,0,0,0,0,0,0,0,0,0,0,0,0,0,0,0,0,0,0,0,0,0,0,0,0,0,0,0,0,0,0,0,0,0,0,0,0,0,0,0,0,0,0,0,0,0,0,0,0,0,0,0,0,0,0,0,0,0,0,0,0,0,0,0,0,0,0,0,0,0,0,0,0,0,0,0,0,
0,0,0,0,0,0,0,0,0,0,0,0,0,0,0,0,0,0,0,0,0,0,0,0,0,0,0,0,0,0,0,0,0,0,0,0,0,0,0,0,0,0,0,0,0,0,0,0,0,0,0,0,0,0,0,0,0,0,0,0,0,0,0,0,0,0,0,0,0,0,0,0,0,0,0,0,0,0,0,0,0,0,0,0,0,0,0,0,0,0,0,0,0,0,0,0,0,0,0,0,0,0,0,0,
0,0,0,0,0,0,0,0,0,0,0,0,0,0,0,0,0,0,0,0,0,0,0,0,0,0,0,0,0,0,0,0,0,0,0,0,0,0,0,0,0,0,0,0,0,0,0,0,0,0,0,0,0,0,0,0,0,0,0,0,0,0,0,0,0,0,0,0,0,0,0,0,0,0,0,0,0,0,0,0,0,0,0,0,0,0,0,0,0,0,0,0,0,0,0,0,0,0,0,0,0,0,0,0,
33,33,33,33,33,33,33,33,33,33,33,33,33,33,33,33,33,33,33,33,33,33,33,33,33,33,33,33,33,33,33,33,33,33,33,33,33,33,33,33,33,33,33,33,33,33,33,33,33,33,33,33,33,33,33,33,33,33,33,33,33,33,33,33,33,33,33,33,33,33,33,33,33,33,33,33,33,33,33,33,33,33,33,33,33,33,33,33,33,33,33,33,33,33,33,33,33,33,33,33,33,33,33,33,
32,32,31,31,31,31,32,31,31,31,32,31,31,32,32,31,32,32,32,32,31,32,32,32,31,31,31,32,32,32,31,32,31,32,31,31,32,31,32,32,31,31,32,31,31,32,31,31,31,32,32,31,31,31,31,32,31,31,32,31,32,31,32,32,31,31,31,31,31,31,31,31,32,32,31,31,32,32,32,32,32,32,31,31,32,31,32,32,32,31,32,31,31,32,32,32,32,31,32,31,32,32,31,32,
0,0,0,0,0,0,0,0,0,0,0,0,0,0,0,0,0,0,0,0,0,0,0,0,0,0,0,0,0,0,0,0,0,0,0,0,0,0,0,0,0,0,0,0,0,0,0,0,0,0,0,0,0,0,0,0,0,0,0,0,0,0,0,0,0,0,0,0,0,0,0,0,0,0,0,0,0,0,0,0,0,0,0,0,0,0,0,0,0,0,0,0,0,0,0,0,0,0,0,0,0,0,0,0,
0,0,0,0,0,0,0,0,0,0,0,0,0,0,0,0,0,0,0,0,0,0,0,0,0,0,0,0,0,0,0,0,0,0,0,0,0,0,0,0,0,0,0,0,0,0,0,0,0,0,0,0,0,0,0,0,0,0,0,0,0,0,0,0,0,0,0,0,0,0,0,0,0,0,0,0,0,0,0,0,0,0,0,0,0,0,0,0,0,0,0,0,0,0,0,0,0,0,0,0,0,0,0,0,
0,0,0,0,0,0,0,0,0,0,0,0,0,0,0,0,0,0,0,0,0,0,0,0,0,0,0,0,0,0,0,0,0,0,0,0,0,0,0,0,0,0,0,0,0,0,0,0,0,0,0,0,0,0,0,0,0,0,0,0,0,0,0,0,0,0,0,0,0,0,0,0,0,0,0,0,0,0,0,0,0,0,0,0,0,0,0,0,0,0,0,0,0,0,0,0,0,0,0,0,0,0,0,0,
0,0,0,0,0,0,0,0,0,0,0,0,0,0,0,0,0,0,0,0,0,0,0,0,0,0,0,0,0,0,0,0,0,0,0,0,0,0,0,0,0,0,0,0,0,0,0,0,0,0,0,0,0,0,0,0,0,0,0,0,0,0,0,0,0,0,0,0,0,0,0,0,0,0,0,0,0,0,0,0,0,0,0,0,0,0,0,0,0,0,0,0,0,0,0,0,0,0,0,0,0,0,0,0,
0,0,0,0,0,0,0,0,0,0,0,0,0,0,0,0,0,0,0,0,0,0,0,0,0,0,0,0,0,0,0,0,0,0,0,0,0,0,0,0,0,0,0,0,0,0,0,0,0,0,0,0,0,0,0,0,0,0,0,0,0,0,0,0,0,0,0,0,0,0,0,0,0,0,0,0,0,0,0,0,0,0,0,0,0,0,0,0,0,0,0,0,0,0,0,0,0,0,0,0,0,0,0,0,
0,0,0,0,0,0,0,0,0,0,0,0,0,0,0,0,0,0,0,0,0,0,0,0,0,0,0,0,0,0,0,0,0,0,0,0,0,0,0,0,0,0,0,0,0,0,0,0,0,0,0,0,0,0,0,0,0,0,0,0,0,0,0,0,0,0,0,0,0,0,0,0,0,0,0,0,0,0,0,0,0,0,0,0,0,0,0,0,0,0,0,0,0,0,0,0,0,0,0,0,0,0,0,0
  </data>
 </layer>
 <layer id="3" name="deco_suelo" width="104" height="17">
  <data encoding="csv">
0,0,0,0,0,0,0,0,0,0,0,0,0,0,0,0,0,0,0,0,0,0,0,0,0,0,0,0,0,0,0,0,0,0,0,0,0,0,0,0,0,0,0,0,0,0,0,0,0,0,0,0,0,0,0,0,0,0,0,0,0,0,0,0,0,0,0,0,0,0,0,0,0,0,0,0,0,0,0,0,0,0,0,0,0,0,0,0,0,0,0,0,0,0,0,0,0,0,0,0,0,0,0,0,
0,0,0,0,0,0,0,0,0,0,0,0,0,0,0,0,0,0,0,0,0,0,0,0,0,0,0,0,0,0,0,0,0,0,0,0,0,0,0,0,0,0,0,0,0,0,0,0,0,0,0,0,0,0,0,0,0,0,0,0,0,0,0,0,0,0,0,0,0,0,0,0,0,0,0,0,0,0,0,0,0,0,0,0,0,0,0,0,0,0,0,0,0,0,0,0,0,0,0,0,0,0,0,0,
0,0,0,0,0,0,0,0,0,0,0,0,0,0,0,0,0,0,0,0,0,0,0,0,0,0,0,0,0,0,0,0,0,0,0,0,0,0,0,0,0,0,0,0,0,0,0,0,0,0,0,0,0,0,0,0,0,0,0,0,0,0,0,0,0,0,0,0,0,0,0,0,0,0,0,0,0,0,0,0,0,0,0,0,0,0,0,0,0,0,0,0,0,0,0,0,0,0,0,0,0,0,0,0,
0,0,0,0,0,0,0,0,0,0,0,0,0,0,0,0,0,0,0,0,0,0,0,0,0,0,0,0,0,0,0,0,0,0,0,0,0,0,0,0,0,0,0,0,0,0,0,0,0,0,0,0,0,0,0,0,0,0,0,0,0,0,0,0,0,0,0,0,0,0,0,0,0,0,0,0,0,0,0,0,0,0,0,0,0,0,0,0,0,0,0,0,0,0,0,0,0,0,0,0,0,0,0,0,
0,0,0,0,0,0,0,0,0,0,0,0,0,0,0,0,0,0,0,0,0,0,0,0,0,0,0,0,0,0,0,0,0,0,0,0,0,0,0,0,0,0,0,0,0,0,0,0,0,0,0,0,0,0,0,0,0,0,0,0,0,0,0,0,0,0,0,0,0,0,0,0,0,0,0,0,0,0,0,0,0,0,0,0,0,0,0,0,0,0,0,0,0,0,0,0,0,0,0,0,0,0,0,0,
0,0,0,0,0,0,0,0,0,0,0,0,0,0,0,0,0,0,0,0,0,0,0,0,0,0,0,0,0,0,0,0,0,0,0,0,0,0,0,0,0,0,0,0,0,0,0,0,0,0,0,0,0,0,0,0,0,0,0,0,0,0,0,0,0,0,0,0,0,0,0,0,0,0,0,0,0,0,0,0,0,0,0,0,0,0,0,0,0,0,0,0,0,0,0,0,0,0,0,0,0,0,0,0,
0,0,0,0,0,0,0,0,0,0,0,0,0,0,0,0,0,0,0,0,0,0,0,0,0,0,0,0,0,0,0,0,0,0,0,0,0,0,0,0,0,0,0,0,0,0,0,0,0,0,0,0,0,0,0,0,0,0,0,0,0,0,0,0,0,0,0,0,0,0,0,0,0,0,0,0,0,0,0,0,0,0,0,0,0,0,0,0,0,0,0,0,0,0,0,0,0,0,0,0,0,0,0,0,
0,0,0,0,0,0,0,0,0,0,0,0,0,0,0,0,0,0,0,0,0,0,0,0,0,0,0,0,0,0,0,0,0,0,0,0,0,0,0,0,0,0,0,0,0,0,0,0,0,0,0,0,0,0,0,0,0,0,0,0,0,0,0,0,0,0,0,0,0,0,0,0,0,0,0,0,0,0,0,0,0,0,0,0,0,0,0,0,0,0,0,0,0,0,0,0,0,0,0,0,0,0,0,0,
0,0,0,0,0,0,0,0,0,0,0,0,0,0,0,0,0,0,0,0,0,0,0,0,0,0,0,0,0,0,0,0,0,0,0,0,0,0,0,0,0,0,0,0,0,0,0,0,0,0,0,0,0,0,0,0,0,0,0,0,0,0,0,0,0,0,0,0,0,0,0,0,0,0,0,0,0,0,0,0,0,0,0,0,0,0,0,0,0,0,0,0,0,0,0,0,0,0,0,0,0,0,0,0,
0,0,0,0,0,0,0,0,0,0,0,0,0,0,0,0,0,0,0,0,0,0,0,0,0,0,0,0,0,0,0,0,0,0,0,0,0,0,0,0,0,0,0,0,0,0,0,0,0,0,0,0,0,0,0,0,0,0,0,0,0,0,0,0,0,0,0,0,0,0,0,0,0,0,0,0,0,0,0,0,0,0,0,0,0,0,0,0,0,0,0,0,0,0,0,0,0,0,0,0,0,0,0,0,
0,0,0,0,0,0,0,0,0,0,0,0,0,0,0,0,0,0,0,0,0,0,0,0,0,0,0,0,0,0,0,0,0,0,0,0,0,0,0,0,0,0,0,0,0,0,0,0,0,0,0,0,0,0,0,0,0,0,0,0,0,0,0,0,0,0,0,0,0,0,0,0,0,0,0,0,0,0,0,0,0,0,0,0,0,0,0,0,0,0,0,0,0,0,0,0,0,0,0,0,0,0,0,0,
0,0,0,0,0,0,0,0,0,0,0,0,0,0,0,0,0,0,0,0,0,0,0,0,0,0,0,0,0,0,0,0,0,0,0,0,0,0,0,0,0,0,0,0,0,0,0,0,0,0,0,0,0,0,0,0,0,0,0,0,0,0,0,0,0,0,0,0,0,0,0,0,0,0,0,0,0,0,0,0,0,0,0,0,0,0,0,0,0,0,0,0,0,0,0,0,0,0,0,0,0,0,0,0,
0,0,0,0,0,0,0,0,0,0,0,0,0,0,0,0,0,0,0,0,0,0,0,0,0,0,0,0,0,0,0,0,0,0,0,0,0,0,0,0,0,0,0,0,0,0,0,0,0,0,0,0,0,0,0,0,0,0,0,0,0,0,0,0,0,0,0,0,0,0,0,0,0,0,0,0,0,0,0,0,0,0,0,0,0,0,0,0,0,0,0,0,0,0,0,0,0,0,0,0,0,0,0,0,
0,0,0,0,0,0,0,0,0,0,0,0,0,0,0,0,0,0,0,0,0,0,0,0,0,0,0,0,0,0,0,0,0,0,0,0,0,0,0,0,0,0,0,0,0,0,0,0,0,0,0,0,0,0,0,0,0,0,0,0,0,0,0,0,0,0,0,0,0,0,0,0,0,0,0,0,0,0,0,0,0,0,0,0,0,0,0,0,0,0,0,0,0,0,0,0,0,0,0,0,0,0,0,0,
0,0,0,0,0,0,0,0,0,0,0,0,0,0,0,0,0,0,0,0,0,0,0,0,0,0,0,0,0,0,0,0,0,0,0,0,0,0,0,0,0,0,0,0,0,0,0,0,0,0,0,0,0,0,0,0,0,0,0,0,0,0,0,0,0,0,0,0,0,0,0,0,0,0,0,0,0,0,0,0,0,0,0,0,0,0,0,0,0,0,0,0,0,0,0,0,0,0,0,0,0,0,0,0,
0,0,0,0,0,0,0,0,0,0,0,0,0,0,0,0,0,0,0,0,0,0,0,0,0,0,0,0,0,0,0,0,0,0,0,0,0,0,0,0,0,0,0,0,0,0,0,0,0,0,0,0,0,0,0,0,0,0,0,0,0,0,0,0,0,0,0,0,0,0,0,0,0,0,0,0,0,0,0,0,0,0,0,0,0,0,0,0,0,0,0,0,0,0,0,0,0,0,0,0,0,0,0,0,
0,0,0,0,0,0,0,0,0,0,0,0,0,0,0,0,0,0,0,0,0,0,0,0,0,0,0,0,0,0,0,0,0,0,0,0,0,0,0,0,0,0,0,0,0,0,0,0,0,0,0,0,0,0,0,0,0,0,0,0,0,0,0,0,0,0,0,0,0,0,0,0,0,0,0,0,0,0,0,0,0,0,0,0,0,0,0,0,0,0,0,0,0,0,0,0,0,0,0,0,0,0,0,0
  </data>
 </layer>
 <layer id="4" name="frente" width="104" height="17">
  <data encoding="csv">
0,0,0,0,0,0,0,0,0,0,0,0,0,0,0,0,0,0,0,0,0,0,0,0,0,0,0,0,0,0,0,0,0,0,0,0,0,0,0,0,0,0,0,0,0,0,0,0,0,0,0,0,0,0,0,0,0,0,0,0,0,0,0,0,0,0,0,0,0,0,0,0,0,0,0,0,0,0,0,0,0,0,0,0,0,0,0,0,0,0,0,0,0,0,0,0,0,0,0,0,0,0,0,0,
0,0,0,0,0,0,0,0,0,0,0,0,0,0,0,0,0,0,0,0,0,0,0,0,0,0,0,0,0,0,0,0,0,0,0,0,0,0,0,0,0,0,0,0,0,0,0,0,0,0,0,0,0,0,0,0,0,0,0,0,0,0,0,0,0,0,0,0,0,0,0,0,0,0,0,0,0,0,0,0,0,0,0,0,0,0,0,0,0,0,0,0,0,0,0,0,0,0,0,0,0,0,0,0,
0,0,0,0,0,0,0,0,0,0,0,0,0,0,0,0,0,0,0,0,0,0,0,0,0,0,0,0,0,0,0,0,0,0,0,0,0,0,0,0,0,0,0,0,0,0,0,0,0,0,0,0,0,0,0,0,0,0,0,0,0,0,0,0,0,0,0,0,0,0,0,0,0,0,0,0,0,0,0,0,0,0,0,0,0,0,0,0,0,0,0,0,0,0,0,0,0,0,0,0,0,0,0,0,
0,0,0,0,0,0,0,0,0,0,0,0,0,0,0,0,0,0,0,0,0,0,0,0,0,0,0,0,0,0,0,0,0,0,0,0,0,0,0,0,0,0,0,0,0,0,0,0,0,0,0,0,0,0,0,0,0,0,0,0,0,0,0,0,0,0,0,0,0,0,0,0,0,0,0,0,0,0,0,0,0,0,0,0,0,0,0,0,0,0,0,0,0,0,0,0,0,0,0,0,0,0,0,0,
0,0,0,0,0,0,0,0,0,0,0,0,0,0,0,0,0,0,0,0,0,0,0,0,0,0,0,0,0,0,0,0,0,0,0,0,0,0,0,0,0,0,0,0,0,0,0,0,0,0,0,0,0,0,0,0,0,0,0,0,0,0,0,0,0,0,0,0,0,0,0,0,0,0,0,0,0,0,0,0,0,0,0,0,0,0,0,0,0,0,0,0,0,0,0,0,0,0,0,0,0,0,0,0,
0,0,0,0,0,0,0,0,0,0,0,0,0,0,0,0,0,0,0,0,0,0,0,0,0,0,0,0,0,0,0,0,0,0,0,0,0,0,0,0,0,0,0,0,0,0,0,0,0,0,0,0,0,0,0,0,0,0,0,0,0,0,0,0,0,0,0,0,0,0,0,0,0,0,0,0,0,0,0,0,0,0,0,0,0,0,0,0,0,0,0,0,0,0,0,0,0,0,0,0,0,0,0,0,
0,0,0,0,0,0,0,0,0,0,0,0,0,0,0,0,0,0,0,0,0,0,0,0,0,0,0,0,0,0,0,0,0,0,0,0,0,0,0,0,0,0,0,0,0,0,0,0,0,0,0,0,0,0,0,0,0,0,0,0,0,0,0,0,0,0,0,0,0,0,0,0,0,0,0,0,0,0,0,0,0,0,0,0,0,0,0,0,0,0,0,0,0,0,0,0,0,0,0,0,0,0,0,0,
0,0,0,0,0,0,0,0,0,0,0,0,0,0,0,0,0,0,0,0,0,0,0,0,0,0,0,0,0,0,0,0,0,0,0,0,0,0,0,0,0,0,0,0,0,0,0,0,0,0,0,0,0,0,0,0,0,0,0,0,0,0,0,0,0,0,0,0,0,0,0,0,0,0,0,0,0,0,0,0,0,0,0,0,0,0,0,0,0,0,0,0,0,0,0,0,0,0,0,0,0,0,0,0,
0,0,0,0,0,0,0,0,0,0,0,0,0,0,0,0,0,0,0,0,0,0,0,0,0,0,0,0,0,0,0,0,0,0,0,0,0,0,0,0,0,0,0,0,0,0,0,0,0,0,0,0,0,0,0,0,0,0,0,0,0,0,0,0,0,0,0,0,0,0,0,0,0,0,0,0,0,0,0,0,0,0,0,0,0,0,0,0,0,0,0,0,0,0,0,0,0,0,0,0,0,0,0,0,
0,0,0,0,0,0,0,0,0,0,0,0,0,0,0,0,0,0,0,0,0,0,0,0,0,0,0,0,0,0,0,0,0,0,0,0,0,0,0,0,0,0,0,0,0,0,0,0,0,0,0,0,0,0,0,0,0,0,0,0,0,0,0,0,0,0,0,0,0,0,0,0,0,0,0,0,0,0,0,0,0,0,0,0,0,0,0,0,0,0,0,0,0,0,0,0,0,0,0,0,0,0,0,0,
0,0,0,0,0,0,0,0,0,0,0,0,0,0,0,0,0,0,0,0,0,0,0,0,0,0,0,0,0,0,0,0,0,0,0,0,0,0,0,0,0,0,0,0,0,0,0,0,0,0,0,0,0,0,0,0,0,0,0,0,0,0,0,0,0,0,0,0,0,0,0,0,0,0,0,0,0,0,0,0,0,0,0,0,0,0,0,0,0,0,0,0,0,0,0,0,0,0,0,0,0,0,0,0,
0,0,0,0,0,0,0,0,0,0,0,0,0,0,0,0,0,0,0,0,0,0,0,0,0,0,0,0,0,0,0,0,0,0,0,0,0,0,0,0,0,0,0,0,0,0,0,0,0,0,0,0,0,0,0,0,0,0,0,0,0,0,0,0,0,0,0,0,0,0,0,0,0,0,0,0,0,0,0,0,0,0,0,0,0,0,0,0,0,0,0,0,0,0,0,0,0,0,0,0,0,0,0,0,
0,0,0,0,0,0,0,0,0,0,0,0,0,0,0,0,0,0,0,0,0,0,0,0,0,0,0,0,0,0,0,0,0,0,0,0,0,0,0,0,0,0,0,0,0,0,0,0,0,0,0,0,0,0,0,0,0,0,0,0,0,0,0,0,0,0,0,0,0,0,0,0,0,0,0,0,0,0,0,0,0,0,0,0,0,0,0,0,0,0,0,0,0,0,0,0,0,0,0,0,0,0,0,0,
0,0,0,0,0,0,0,0,0,0,0,0,0,0,0,0,0,0,0,0,0,0,0,0,0,0,0,0,0,0,0,0,0,0,0,0,0,0,0,0,0,0,0,0,0,0,0,0,0,0,0,0,0,0,0,0,0,0,0,0,0,0,0,0,0,0,0,0,0,0,0,0,0,0,0,0,0,0,0,0,0,0,0,0,0,0,0,0,0,0,0,0,0,0,0,0,0,0,0,0,0,0,0,0,
0,0,0,0,0,0,0,0,0,0,0,0,0,0,0,0,0,0,0,0,0,0,0,0,0,0,0,0,0,0,0,0,0,0,0,0,0,0,0,0,0,0,0,0,0,0,0,0,0,0,0,0,0,0,0,0,0,0,0,0,0,0,0,0,0,0,0,0,0,0,0,0,0,0,0,0,0,0,0,0,0,0,0,0,0,0,0,0,0,0,0,0,0,0,0,0,0,0,0,0,0,0,0,0,
0,0,0,0,0,0,0,0,0,0,0,0,0,0,0,0,0,0,0,0,0,0,0,0,0,0,0,0,0,0,0,0,0,0,0,0,0,0,0,0,0,0,0,0,0,0,0,0,0,0,0,0,0,0,0,0,0,0,0,0,0,0,0,0,0,0,0,0,0,0,0,0,0,0,0,0,0,0,0,0,0,0,0,0,0,0,0,0,0,0,0,0,0,0,0,0,0,0,0,0,0,0,0,0,
0,0,0,0,0,0,0,0,0,0,0,0,0,0,0,0,0,0,0,0,0,0,0,0,0,0,0,0,0,0,0,0,0,0,0,0,0,0,0,0,0,0,0,0,0,0,0,0,0,0,0,0,0,0,0,0,0,0,0,0,0,0,0,0,0,0,0,0,0,0,0,0,0,0,0,0,0,0,0,0,0,0,0,0,0,0,0,0,0,0,0,0,0,0,0,0,0,0,0,0,0,0,0,0
  </data>
 </layer>
 <objectgroup id="5" name="props_fondo">
 </objectgroup>
 <objectgroup id="6" name="props_suelo">
  <object id="2" name="puerta" type="" gid="35" x="400" y="200" width="16" height="16"/>
  <object id="3" name="puerta" type="" gid="35" x="400" y="264" width="16" height="16"/>
  <object id="15" name="puerta" type="" gid="35" x="816" y="200" width="16" height="16"/>
  <object id="16" name="puerta" type="" gid="35" x="816" y="264" width="16" height="16"/>
  <object id="24" name="puerta" type="" gid="35" x="1232" y="200" width="16" height="16"/>
  <object id="25" name="puerta" type="" gid="35" x="1232" y="264" width="16" height="16"/>
  <object id="33" name="puerta" type="" gid="35" x="1648" y="200" width="16" height="16"/>
  <object id="34" name="puerta" type="" gid="35" x="1648" y="264" width="16" height="16"/>
 </objectgroup>
 <objectgroup id="7" name="props_frente">
 </objectgroup>
 <objectgroup id="8" name="colision">
  <object id="56" name="puente3" type="puente" x="982" y="248" width="120" height="24">
   <properties>
    <property name="alto" type="int" value="2"/>
   </properties>
  </object>
 </objectgroup>
 <objectgroup id="9" name="plataformas">
  <object id="45" name="pasarela1" type="pasarela" x="100" y="176" width="236" height="24">
   <properties>
    <property name="alto" type="int" value="20"/>
   </properties>
  </object>
  <object id="49" name="piedra0" type="seta" x="576" y="204" width="32" height="28">
   <properties>
    <property name="alto" type="int" value="6"/>
   </properties>
  </object>
  <object id="50" name="piedra1" type="seta" x="616" y="204" width="32" height="28">
   <properties>
    <property name="alto" type="int" value="6"/>
   </properties>
  </object>
  <object id="51" name="piedra2" type="seta" x="656" y="204" width="30" height="28">
   <properties>
    <property name="alto" type="int" value="6"/>
   </properties>
  </object>
  <object id="57" name="columpio1" type="plataforma" x="988" y="196" width="40" height="28">
   <properties>
    <property name="alto" type="int" value="8"/>
    <property name="mueve"  value="x"/>
    <property name="rango" type="float" value="48.0"/>
    <property name="periodo" type="float" value="3.0"/>
    <property name="fase" type="float" value="0.0"/>
   </properties>
  </object>
  <object id="58" name="columpio2" type="plataforma" x="1056" y="212" width="40" height="28">
   <properties>
    <property name="alto" type="int" value="8"/>
    <property name="mueve"  value="x"/>
    <property name="rango" type="float" value="-48.0"/>
    <property name="periodo" type="float" value="3.0"/>
    <property name="fase" type="float" value="0.0"/>
   </properties>
  </object>
  <object id="64" name="heno1" type="heno" x="1348" y="176" width="36" height="26">
   <properties>
    <property name="alto" type="int" value="20"/>
   </properties>
  </object>
  <object id="65" name="heno2" type="heno" x="1384" y="176" width="56" height="26">
   <properties>
    <property name="alto" type="int" value="32"/>
   </properties>
  </object>
  <object id="66" name="heno3" type="heno" x="1440" y="176" width="70" height="26">
   <properties>
    <property name="alto" type="int" value="32"/>
   </properties>
  </object>
  <object id="67" name="heno4" type="heno" x="1510" y="176" width="36" height="26">
   <properties>
    <property name="alto" type="int" value="20"/>
   </properties>
  </object>
 </objectgroup>
 <objectgroup id="10" name="agua">
  <object id="48" name="arroyo" type="agua" x="576" y="176" width="110" height="96">
   <properties>
    <property name="corriente" type="float" value="0.0"/>
   </properties>
  </object>
 </objectgroup>
 <objectgroup id="11" name="huecos">
  <object id="55" name="hueco" type="hueco" x="982" y="176" width="120" height="72"/>
 </objectgroup>
 <objectgroup id="12" name="rebote">
 </objectgroup>
 <objectgroup id="13" name="moviles">
  <object id="41" name="tronco00" type="tronco" x="100" y="182" width="16" height="36">
   <properties>
    <property name="alto" type="int" value="14"/>
    <property name="x0" type="int" value="90"/>
    <property name="x1" type="int" value="350"/>
    <property name="speed" type="float" value="75.0"/>
    <property name="period" type="float" value="0.0"/>
    <property name="phase" type="float" value="0.0"/>
    <property name="warn" type="float" value="0.8"/>
   </properties>
  </object>
  <object id="42" name="tronco01" type="tronco" x="100" y="182" width="16" height="36">
   <properties>
    <property name="alto" type="int" value="14"/>
    <property name="x0" type="int" value="90"/>
    <property name="x1" type="int" value="350"/>
    <property name="speed" type="float" value="75.0"/>
    <property name="period" type="float" value="0.0"/>
    <property name="phase" type="float" value="0.5"/>
    <property name="warn" type="float" value="0.8"/>
   </properties>
  </object>
  <object id="43" name="tronco10" type="tronco" x="100" y="230" width="16" height="36">
   <properties>
    <property name="alto" type="int" value="14"/>
    <property name="x0" type="int" value="90"/>
    <property name="x1" type="int" value="350"/>
    <property name="speed" type="float" value="75.0"/>
    <property name="period" type="float" value="0.0"/>
    <property name="phase" type="float" value="0.25"/>
    <property name="warn" type="float" value="0.8"/>
   </properties>
  </object>
  <object id="44" name="tronco11" type="tronco" x="100" y="230" width="16" height="36">
   <properties>
    <property name="alto" type="int" value="14"/>
    <property name="x0" type="int" value="90"/>
    <property name="x1" type="int" value="350"/>
    <property name="speed" type="float" value="75.0"/>
    <property name="period" type="float" value="0.0"/>
    <property name="phase" type="float" value="0.75"/>
    <property name="warn" type="float" value="0.8"/>
   </properties>
  </object>
  <object id="62" name="barrido0" type="barrido" x="1378" y="176" width="14" height="96">
   <properties>
    <property name="alto" type="int" value="16"/>
    <property name="x0" type="int" value="1358"/>
    <property name="x1" type="int" value="1578"/>
    <property name="speed" type="float" value="0.0"/>
    <property name="period" type="float" value="4.0"/>
    <property name="phase" type="float" value="0.0"/>
    <property name="warn" type="float" value="0.8"/>
   </properties>
  </object>
  <object id="63" name="barrido1" type="barrido" x="1378" y="176" width="14" height="96">
   <properties>
    <property name="alto" type="int" value="16"/>
    <property name="x0" type="int" value="1358"/>
    <property name="x1" type="int" value="1578"/>
    <property name="speed" type="float" value="0.0"/>
    <property name="period" type="float" value="4.0"/>
    <property name="phase" type="float" value="0.5"/>
    <property name="warn" type="float" value="0.8"/>
   </properties>
  </object>
 </objectgroup>
 <objectgroup id="14" name="checkpoints">
 </objectgroup>
 <objectgroup id="15" name="salidas">
  <object id="4" name="salida0" type="salida" x="40" y="194">
   <properties>
    <property name="slot" type="int" value="0"/>
   </properties>
   <point/>
  </object>
  <object id="5" name="sala0_salida0" type="salida_sala" x="40" y="194">
   <properties>
    <property name="slot" type="int" value="0"/>
    <property name="sala" type="int" value="0"/>
   </properties>
   <point/>
  </object>
  <object id="6" name="salida1" type="salida" x="40" y="214">
   <properties>
    <property name="slot" type="int" value="1"/>
   </properties>
   <point/>
  </object>
  <object id="7" name="sala0_salida1" type="salida_sala" x="40" y="214">
   <properties>
    <property name="slot" type="int" value="1"/>
    <property name="sala" type="int" value="0"/>
   </properties>
   <point/>
  </object>
  <object id="8" name="salida2" type="salida" x="40" y="234">
   <properties>
    <property name="slot" type="int" value="2"/>
   </properties>
   <point/>
  </object>
  <object id="9" name="sala0_salida2" type="salida_sala" x="40" y="234">
   <properties>
    <property name="slot" type="int" value="2"/>
    <property name="sala" type="int" value="0"/>
   </properties>
   <point/>
  </object>
  <object id="10" name="salida3" type="salida" x="40" y="254">
   <properties>
    <property name="slot" type="int" value="3"/>
   </properties>
   <point/>
  </object>
  <object id="11" name="sala0_salida3" type="salida_sala" x="40" y="254">
   <properties>
    <property name="slot" type="int" value="3"/>
    <property name="sala" type="int" value="0"/>
   </properties>
   <point/>
  </object>
  <object id="17" name="sala1_salida0" type="salida_sala" x="456" y="194">
   <properties>
    <property name="slot" type="int" value="0"/>
    <property name="sala" type="int" value="1"/>
   </properties>
   <point/>
  </object>
  <object id="18" name="sala1_salida1" type="salida_sala" x="456" y="214">
   <properties>
    <property name="slot" type="int" value="1"/>
    <property name="sala" type="int" value="1"/>
   </properties>
   <point/>
  </object>
  <object id="19" name="sala1_salida2" type="salida_sala" x="456" y="234">
   <properties>
    <property name="slot" type="int" value="2"/>
    <property name="sala" type="int" value="1"/>
   </properties>
   <point/>
  </object>
  <object id="20" name="sala1_salida3" type="salida_sala" x="456" y="254">
   <properties>
    <property name="slot" type="int" value="3"/>
    <property name="sala" type="int" value="1"/>
   </properties>
   <point/>
  </object>
  <object id="26" name="sala2_salida0" type="salida_sala" x="872" y="194">
   <properties>
    <property name="slot" type="int" value="0"/>
    <property name="sala" type="int" value="2"/>
   </properties>
   <point/>
  </object>
  <object id="27" name="sala2_salida1" type="salida_sala" x="872" y="214">
   <properties>
    <property name="slot" type="int" value="1"/>
    <property name="sala" type="int" value="2"/>
   </properties>
   <point/>
  </object>
  <object id="28" name="sala2_salida2" type="salida_sala" x="872" y="234">
   <properties>
    <property name="slot" type="int" value="2"/>
    <property name="sala" type="int" value="2"/>
   </properties>
   <point/>
  </object>
  <object id="29" name="sala2_salida3" type="salida_sala" x="872" y="254">
   <properties>
    <property name="slot" type="int" value="3"/>
    <property name="sala" type="int" value="2"/>
   </properties>
   <point/>
  </object>
  <object id="35" name="sala3_salida0" type="salida_sala" x="1288" y="194">
   <properties>
    <property name="slot" type="int" value="0"/>
    <property name="sala" type="int" value="3"/>
   </properties>
   <point/>
  </object>
  <object id="36" name="sala3_salida1" type="salida_sala" x="1288" y="214">
   <properties>
    <property name="slot" type="int" value="1"/>
    <property name="sala" type="int" value="3"/>
   </properties>
   <point/>
  </object>
  <object id="37" name="sala3_salida2" type="salida_sala" x="1288" y="234">
   <properties>
    <property name="slot" type="int" value="2"/>
    <property name="sala" type="int" value="3"/>
   </properties>
   <point/>
  </object>
  <object id="38" name="sala3_salida3" type="salida_sala" x="1288" y="254">
   <properties>
    <property name="slot" type="int" value="3"/>
    <property name="sala" type="int" value="3"/>
   </properties>
   <point/>
  </object>
 </objectgroup>
 <objectgroup id="16" name="meta">
 </objectgroup>
 <objectgroup id="17" name="rutas_ia">
  <object id="70" name="r0a" type="nodo" x="60" y="226">
   <properties>
    <property name="id"  value="r0a"/>
    <property name="tipo"  value="principal"/>
    <property name="siguiente"  value="r0e:1,r0h:1"/>
    <property name="salta" type="bool" value="false"/>
   </properties>
   <point/>
  </object>
  <object id="71" name="r0e" type="nodo" x="220" y="226">
   <properties>
    <property name="id"  value="r0e"/>
    <property name="tipo"  value="facil"/>
    <property name="siguiente"  value="r0d:1"/>
    <property name="salta" type="bool" value="false"/>
   </properties>
   <point/>
  </object>
  <object id="72" name="r0h" type="nodo" x="96" y="208">
   <properties>
    <property name="id"  value="r0h"/>
    <property name="tipo"  value="dificil"/>
    <property name="siguiente"  value="r0h2:1"/>
    <property name="salta" type="bool" value="false"/>
   </properties>
   <point/>
  </object>
  <object id="73" name="r0h2" type="nodo" x="200" y="188">
   <properties>
    <property name="id"  value="r0h2"/>
    <property name="tipo"  value="dificil"/>
    <property name="siguiente"  value="r0h3:1"/>
    <property name="salta" type="bool" value="false"/>
   </properties>
   <point/>
  </object>
  <object id="74" name="r0h3" type="nodo" x="338" y="188">
   <properties>
    <property name="id"  value="r0h3"/>
    <property name="tipo"  value="dificil"/>
    <property name="siguiente"  value="r0d:1"/>
    <property name="salta" type="bool" value="false"/>
   </properties>
   <point/>
  </object>
  <object id="75" name="r0d" type="nodo" x="402" y="226">
   <properties>
    <property name="id"  value="r0d"/>
    <property name="tipo"  value="principal"/>
    <property name="siguiente"  value=""/>
    <property name="salta" type="bool" value="false"/>
   </properties>
   <point/>
  </object>
  <object id="76" name="r1a" type="nodo" x="476" y="226">
   <properties>
    <property name="id"  value="r1a"/>
    <property name="tipo"  value="principal"/>
    <property name="siguiente"  value="r1e0:1,r1h:1"/>
    <property name="salta" type="bool" value="false"/>
   </properties>
   <point/>
  </object>
  <object id="77" name="r1e0" type="nodo" x="566" y="262">
   <properties>
    <property name="id"  value="r1e0"/>
    <property name="tipo"  value="facil"/>
    <property name="siguiente"  value="r1e:1"/>
    <property name="salta" type="bool" value="false"/>
   </properties>
   <point/>
  </object>
  <object id="78" name="r1e" type="nodo" x="631" y="264">
   <properties>
    <property name="id"  value="r1e"/>
    <property name="tipo"  value="facil"/>
    <property name="siguiente"  value="r1e2:1"/>
    <property name="salta" type="bool" value="false"/>
   </properties>
   <point/>
  </object>
  <object id="79" name="r1e2" type="nodo" x="706" y="236">
   <properties>
    <property name="id"  value="r1e2"/>
    <property name="tipo"  value="facil"/>
    <property name="siguiente"  value="r1d:1"/>
    <property name="salta" type="bool" value="false"/>
   </properties>
   <point/>
  </object>
  <object id="80" name="r1h" type="nodo" x="592" y="218">
   <properties>
    <property name="id"  value="r1h"/>
    <property name="tipo"  value="dificil"/>
    <property name="siguiente"  value="r1h2:1"/>
    <property name="salta" type="bool" value="false"/>
   </properties>
   <point/>
  </object>
  <object id="81" name="r1h2" type="nodo" x="632" y="218">
   <properties>
    <property name="id"  value="r1h2"/>
    <property name="tipo"  value="dificil"/>
    <property name="siguiente"  value="r1h3:1"/>
    <property name="salta" type="bool" value="false"/>
   </properties>
   <point/>
  </object>
  <object id="82" name="r1h3" type="nodo" x="671" y="218">
   <properties>
    <property name="id"  value="r1h3"/>
    <property name="tipo"  value="dificil"/>
    <property name="siguiente"  value="r1d:1"/>
    <property name="salta" type="bool" value="false"/>
   </properties>
   <point/>
  </object>
  <object id="83" name="r1d" type="nodo" x="818" y="226">
   <properties>
    <property name="id"  value="r1d"/>
    <property name="tipo"  value="principal"/>
    <property name="siguiente"  value=""/>
    <property name="salta" type="bool" value="false"/>
   </properties>
   <point/>
  </object>
  <object id="84" name="r2a" type="nodo" x="892" y="226">
   <properties>
    <property name="id"  value="r2a"/>
    <property name="tipo"  value="principal"/>
    <property name="siguiente"  value="r2e0:1,r2h:1"/>
    <property name="salta" type="bool" value="false"/>
   </properties>
   <point/>
  </object>
  <object id="85" name="r2e0" type="nodo" x="950" y="262">
   <properties>
    <property name="id"  value="r2e0"/>
    <property name="tipo"  value="facil"/>
    <property name="siguiente"  value="r2e:1"/>
    <property name="salta" type="bool" value="false"/>
   </properties>
   <point/>
  </object>
  <object id="86" name="r2e" type="nodo" x="1042" y="262">
   <properties>
    <property name="id"  value="r2e"/>
    <property name="tipo"  value="facil"/>
    <property name="siguiente"  value="r2e2:1"/>
    <property name="salta" type="bool" value="false"/>
   </properties>
   <point/>
  </object>
  <object id="87" name="r2e2" type="nodo" x="1132" y="232">
   <properties>
    <property name="id"  value="r2e2"/>
    <property name="tipo"  value="facil"/>
    <property name="siguiente"  value="r2d:1"/>
    <property name="salta" type="bool" value="false"/>
   </properties>
   <point/>
  </object>
  <object id="88" name="r2h" type="nodo" x="972" y="204">
   <properties>
    <property name="id"  value="r2h"/>
    <property name="tipo"  value="dificil"/>
    <property name="siguiente"  value="r2h2:1"/>
    <property name="salta" type="bool" value="false"/>
   </properties>
   <point/>
  </object>
  <object id="89" name="r2h2" type="nodo" x="1042" y="218">
   <properties>
    <property name="id"  value="r2h2"/>
    <property name="tipo"  value="dificil"/>
    <property name="siguiente"  value="r2h3:1"/>
    <property name="salta" type="bool" value="false"/>
   </properties>
   <point/>
  </object>
  <object id="90" name="r2h3" type="nodo" x="1122" y="218">
   <properties>
    <property name="id"  value="r2h3"/>
    <property name="tipo"  value="dificil"/>
    <property name="siguiente"  value="r2d:1"/>
    <property name="salta" type="bool" value="false"/>
   </properties>
   <point/>
  </object>
  <object id="91" name="r2d" type="nodo" x="1234" y="226">
   <properties>
    <property name="id"  value="r2d"/>
    <property name="tipo"  value="principal"/>
    <property name="siguiente"  value=""/>
    <property name="salta" type="bool" value="false"/>
   </properties>
   <point/>
  </object>
  <object id="92" name="r3a" type="nodo" x="1308" y="226">
   <properties>
    <property name="id"  value="r3a"/>
    <property name="tipo"  value="principal"/>
    <property name="siguiente"  value="r3e:1,r3h:1"/>
    <property name="salta" type="bool" value="false"/>
   </properties>
   <point/>
  </object>
  <object id="93" name="r3e" type="nodo" x="1463" y="232">
   <properties>
    <property name="id"  value="r3e"/>
    <property name="tipo"  value="facil"/>
    <property name="siguiente"  value="r3d:1"/>
    <property name="salta" type="bool" value="false"/>
   </properties>
   <point/>
  </object>
  <object id="94" name="r3h" type="nodo" x="1352" y="190">
   <properties>
    <property name="id"  value="r3h"/>
    <property name="tipo"  value="dificil"/>
    <property name="siguiente"  value="r3h2:1"/>
    <property name="salta" type="bool" value="false"/>
   </properties>
   <point/>
  </object>
  <object id="95" name="r3h2" type="nodo" x="1475" y="190">
   <properties>
    <property name="id"  value="r3h2"/>
    <property name="tipo"  value="dificil"/>
    <property name="siguiente"  value="r3h3:1"/>
    <property name="salta" type="bool" value="false"/>
   </properties>
   <point/>
  </object>
  <object id="96" name="r3h3" type="nodo" x="1548" y="190">
   <properties>
    <property name="id"  value="r3h3"/>
    <property name="tipo"  value="dificil"/>
    <property name="siguiente"  value="r3d:1"/>
    <property name="salta" type="bool" value="false"/>
   </properties>
   <point/>
  </object>
  <object id="97" name="r3d" type="nodo" x="1650" y="226">
   <properties>
    <property name="id"  value="r3d"/>
    <property name="tipo"  value="principal"/>
    <property name="siguiente"  value=""/>
    <property name="salta" type="bool" value="false"/>
   </properties>
   <point/>
  </object>
 </objectgroup>
 <objectgroup id="18" name="activadores">
  <object id="12" name="puerta0" type="activador" x="392" y="176" width="24" height="96">
   <properties>
    <property name="evento"  value="sala_fin:0"/>
   </properties>
  </object>
  <object id="21" name="puerta1" type="activador" x="808" y="176" width="24" height="96">
   <properties>
    <property name="evento"  value="sala_fin:1"/>
   </properties>
  </object>
  <object id="30" name="puerta2" type="activador" x="1224" y="176" width="24" height="96">
   <properties>
    <property name="evento"  value="sala_fin:2"/>
   </properties>
  </object>
  <object id="39" name="puerta3" type="activador" x="1640" y="176" width="24" height="96">
   <properties>
    <property name="evento"  value="sala_fin:3"/>
   </properties>
  </object>
 </objectgroup>
 <objectgroup id="19" name="objetos">
  <object id="46" name="dorada" type="dorada" x="342" y="188">
   <properties>
    <property name="z" type="int" value="28"/>
   </properties>
   <point/>
  </object>
  <object id="47" name="pelota" type="pelota" x="60" y="230">
   <point/>
  </object>
  <object id="52" name="dorada" type="dorada" x="632" y="218">
   <properties>
    <property name="z" type="int" value="26"/>
   </properties>
   <point/>
  </object>
  <object id="53" name="pelota" type="pelota" x="486" y="214">
   <point/>
  </object>
  <object id="54" name="estrella" type="estrella" x="526" y="248">
   <properties>
    <property name="z" type="int" value="6"/>
   </properties>
   <point/>
  </object>
  <object id="59" name="dorada" type="dorada" x="1042" y="218">
   <properties>
    <property name="z" type="int" value="26"/>
   </properties>
   <point/>
  </object>
  <object id="60" name="pelota" type="pelota" x="902" y="226">
   <point/>
  </object>
  <object id="61" name="caja" type="caja" x="1172" y="230">
   <point/>
  </object>
  <object id="68" name="dorada" type="dorada" x="1475" y="190">
   <properties>
    <property name="z" type="int" value="44"/>
   </properties>
   <point/>
  </object>
  <object id="69" name="pelota" type="pelota" x="1318" y="240">
   <point/>
  </object>
 </objectgroup>
 <objectgroup id="20" name="salas">
  <object id="1" name="Troncos rodantes" type="sala" x="0" y="176" width="416" height="96">
   <properties>
    <property name="orden" type="int" value="0"/>
    <property name="x0" type="int" value="0"/>
    <property name="x1" type="int" value="416"/>
    <property name="puerta_x" type="int" value="392"/>
    <property name="puerta_y" type="int" value="176"/>
    <property name="puerta_w" type="int" value="24"/>
    <property name="puerta_h" type="int" value="96"/>
    <property name="inicio_x" type="int" value="40"/>
    <property name="inicio_y" type="int" value="224"/>
   </properties>
  </object>
  <object id="14" name="Arroyo de hongos" type="sala" x="416" y="176" width="416" height="96">
   <properties>
    <property name="orden" type="int" value="1"/>
    <property name="x0" type="int" value="416"/>
    <property name="x1" type="int" value="832"/>
    <property name="puerta_x" type="int" value="808"/>
    <property name="puerta_y" type="int" value="176"/>
    <property name="puerta_w" type="int" value="24"/>
    <property name="puerta_h" type="int" value="96"/>
    <property name="inicio_x" type="int" value="456"/>
    <property name="inicio_y" type="int" value="224"/>
   </properties>
  </object>
  <object id="23" name="Plataformas columpio" type="sala" x="832" y="176" width="416" height="96">
   <properties>
    <property name="orden" type="int" value="2"/>
    <property name="x0" type="int" value="832"/>
    <property name="x1" type="int" value="1248"/>
    <property name="puerta_x" type="int" value="1224"/>
    <property name="puerta_y" type="int" value="176"/>
    <property name="puerta_w" type="int" value="24"/>
    <property name="puerta_h" type="int" value="96"/>
    <property name="inicio_x" type="int" value="872"/>
    <property name="inicio_y" type="int" value="224"/>
   </properties>
  </object>
  <object id="32" name="Molino de burbujas" type="sala" x="1248" y="176" width="416" height="96">
   <properties>
    <property name="orden" type="int" value="3"/>
    <property name="x0" type="int" value="1248"/>
    <property name="x1" type="int" value="1664"/>
    <property name="puerta_x" type="int" value="1640"/>
    <property name="puerta_y" type="int" value="176"/>
    <property name="puerta_w" type="int" value="24"/>
    <property name="puerta_h" type="int" value="96"/>
    <property name="inicio_x" type="int" value="1288"/>
    <property name="inicio_y" type="int" value="224"/>
   </properties>
  </object>
 </objectgroup>
 <objectgroup id="21" name="zonas">
  <object id="13" name="Troncos rodantes" type="zona" x="0" y="176" width="416" height="96">
   <properties>
    <property name="orden" type="int" value="1"/>
   </properties>
  </object>
  <object id="22" name="Arroyo de hongos" type="zona" x="416" y="176" width="416" height="96">
   <properties>
    <property name="orden" type="int" value="2"/>
   </properties>
  </object>
  <object id="31" name="Plataformas columpio" type="zona" x="832" y="176" width="416" height="96">
   <properties>
    <property name="orden" type="int" value="3"/>
   </properties>
  </object>
  <object id="40" name="Molino de burbujas" type="zona" x="1248" y="176" width="416" height="96">
   <properties>
    <property name="orden" type="int" value="4"/>
   </properties>
  </object>
 </objectgroup>
</map>
