<?xml version="1.0" encoding="UTF-8"?>
<map version="1.8" tiledversion="1.8.2" orientation="orthogonal" renderorder="right-down" width="213" height="17" tilewidth="16" tileheight="16" infinite="0" nextlayerid="40" nextobjectid="265">
 <properties>
  <property name="camera"  value="follow"/>
  <property name="ground_top" type="int" value="176"/>
  <property name="ground_bottom" type="int" value="272"/>
 </properties>
 <tileset firstgid="1" source="tiles.tsx"/>
 <layer id="1" name="suelo" width="213" height="17">
  <data encoding="csv">
0,0,0,0,0,0,0,0,0,0,0,0,0,0,0,0,0,0,0,0,0,0,0,0,0,0,0,0,0,0,0,0,0,0,0,0,0,0,0,0,0,0,0,0,0,0,0,0,0,0,0,0,0,0,0,0,0,0,0,0,0,0,0,0,0,0,0,0,0,0,0,0,0,0,0,0,0,0,0,0,0,0,0,0,0,0,0,0,0,0,0,0,0,0,0,0,0,0,0,0,0,0,0,0,0,0,0,0,0,0,0,0,0,0,0,0,0,0,0,0,0,0,0,0,0,0,0,0,0,0,0,0,0,0,0,0,0,0,0,0,0,0,0,0,0,0,0,0,0,0,0,0,0,0,0,0,0,0,0,0,0,0,0,0,0,0,0,0,0,0,0,0,0,0,0,0,0,0,0,0,0,0,0,0,0,0,0,0,0,0,0,0,0,0,0,0,0,0,0,0,0,0,0,0,0,0,0,0,0,0,0,0,0,
0,0,0,0,0,0,0,0,0,0,0,0,0,0,0,0,0,0,0,0,0,0,0,0,0,0,0,0,0,0,0,0,0,0,0,0,0,0,0,0,0,0,0,0,0,0,0,0,0,0,0,0,0,0,0,0,0,0,0,0,0,0,0,0,0,0,0,0,0,0,0,0,0,0,0,0,0,0,0,0,0,0,0,0,0,0,0,0,0,0,0,0,0,0,0,0,0,0,0,0,0,0,0,0,0,0,0,0,0,0,0,0,0,0,0,0,0,0,0,0,0,0,0,0,0,0,0,0,0,0,0,0,0,0,0,0,0,0,0,0,0,0,0,0,0,0,0,0,0,0,0,0,0,0,0,0,0,0,0,0,0,0,0,0,0,0,0,0,0,0,0,0,0,0,0,0,0,0,0,0,0,0,0,0,0,0,0,0,0,0,0,0,0,0,0,0,0,0,0,0,0,0,0,0,0,0,0,0,0,0,0,0,0,
0,0,0,0,0,0,0,0,0,0,0,0,0,0,0,0,0,0,0,0,0,0,0,0,0,0,0,0,0,0,0,0,0,0,0,0,0,0,0,0,0,0,0,0,0,0,0,0,0,0,0,0,0,0,0,0,0,0,0,0,0,0,0,0,0,0,0,0,0,0,0,0,0,0,0,0,0,0,0,0,0,0,0,0,0,0,0,0,0,0,0,0,0,0,0,0,0,0,0,0,0,0,0,0,0,0,0,0,0,0,0,0,0,0,0,0,0,0,0,0,0,0,0,0,0,0,0,0,0,0,0,0,0,0,0,0,0,0,0,0,0,0,0,0,0,0,0,0,0,0,0,0,0,0,0,0,0,0,0,0,0,0,0,0,0,0,0,0,0,0,0,0,0,0,0,0,0,0,0,0,0,0,0,0,0,0,0,0,0,0,0,0,0,0,0,0,0,0,0,0,0,0,0,0,0,0,0,0,0,0,0,0,0,
0,0,0,0,0,0,0,0,0,0,0,0,0,0,0,0,0,0,0,0,0,0,0,0,0,0,0,0,0,0,0,0,0,0,0,0,0,0,0,0,0,0,0,0,0,0,0,0,0,0,0,0,0,0,0,0,0,0,0,0,0,0,0,0,0,0,0,0,0,0,0,0,0,0,0,0,0,0,0,0,0,0,0,0,0,0,0,0,0,0,0,0,0,0,0,0,0,0,0,0,0,0,0,0,0,0,0,0,0,0,0,0,0,0,0,0,0,0,0,0,0,0,0,0,0,0,0,0,0,0,0,0,0,0,0,0,0,0,0,0,0,0,0,0,0,0,0,0,0,0,0,0,0,0,0,0,0,0,0,0,0,0,0,0,0,0,0,0,0,0,0,0,0,0,0,0,0,0,0,0,0,0,0,0,0,0,0,0,0,0,0,0,0,0,0,0,0,0,0,0,0,0,0,0,0,0,0,0,0,0,0,0,0,
0,0,0,0,0,0,0,0,0,0,0,0,0,0,0,0,0,0,0,0,0,0,0,0,0,0,0,0,0,0,0,0,0,0,0,0,0,0,0,0,0,0,0,0,0,0,0,0,0,0,0,0,0,0,0,0,0,0,0,0,0,0,0,0,0,0,0,0,0,0,0,0,0,0,0,0,0,0,0,0,0,0,0,0,0,0,0,0,0,0,0,0,0,0,0,0,0,0,0,0,0,0,0,0,0,0,0,0,0,0,0,0,0,0,0,0,0,0,0,0,0,0,0,0,0,0,0,0,0,0,0,0,0,0,0,0,0,0,0,0,0,0,0,0,0,0,0,0,0,0,0,0,0,0,0,0,0,0,0,0,0,0,0,0,0,0,0,0,0,0,0,0,0,0,0,0,0,0,0,0,0,0,0,0,0,0,0,0,0,0,0,0,0,0,0,0,0,0,0,0,0,0,0,0,0,0,0,0,0,0,0,0,0,
0,0,0,0,0,0,0,0,0,0,0,0,0,0,0,0,0,0,0,0,0,0,0,0,0,0,0,0,0,0,0,0,0,0,0,0,0,0,0,0,0,0,0,0,0,0,0,0,0,0,0,0,0,0,0,0,0,0,0,0,0,0,0,0,0,0,0,0,0,0,0,0,0,0,0,0,0,0,0,0,0,0,0,0,0,0,0,0,0,0,0,0,0,0,0,0,0,0,0,0,0,0,0,0,0,0,0,0,0,0,0,0,0,0,0,0,0,0,0,0,0,0,0,0,0,0,0,0,0,0,0,0,0,0,0,0,0,0,0,0,0,0,0,0,0,0,0,0,0,0,0,0,0,0,0,0,0,0,0,0,0,0,0,0,0,0,0,0,0,0,0,0,0,0,0,0,0,0,0,0,0,0,0,0,0,0,0,0,0,0,0,0,0,0,0,0,0,0,0,0,0,0,0,0,0,0,0,0,0,0,0,0,0,
0,0,0,0,0,0,0,0,0,0,0,0,0,0,0,0,0,0,0,0,0,0,0,0,0,0,0,0,0,0,0,0,0,0,0,0,0,0,0,0,0,0,0,0,0,0,0,0,0,0,0,0,0,0,0,0,0,0,0,0,0,0,0,0,0,0,0,0,0,0,0,0,0,0,0,0,0,0,0,0,0,0,0,0,0,0,0,0,0,0,0,0,0,0,0,0,0,0,0,0,0,0,0,0,0,0,0,0,0,0,0,0,0,0,0,0,0,0,0,0,0,0,0,0,0,0,0,0,0,0,0,0,0,0,0,0,0,0,0,0,0,0,0,0,0,0,0,0,0,0,0,0,0,0,0,0,0,0,0,0,0,0,0,0,0,0,0,0,0,0,0,0,0,0,0,0,0,0,0,0,0,0,0,0,0,0,0,0,0,0,0,0,0,0,0,0,0,0,0,0,0,0,0,0,0,0,0,0,0,0,0,0,0,
0,0,0,0,0,0,0,0,0,0,0,0,0,0,0,0,0,0,0,0,0,0,0,0,0,0,0,0,0,0,0,0,0,0,0,0,0,0,0,0,0,0,0,0,0,0,0,0,0,0,0,0,0,0,0,0,0,0,0,0,0,0,0,0,0,0,0,0,0,0,0,0,0,0,0,0,0,0,0,0,0,0,0,0,0,0,0,0,0,0,0,0,0,0,0,0,0,0,0,0,0,0,0,0,0,0,0,0,0,0,0,0,0,0,0,0,0,0,0,0,0,0,0,0,0,0,0,0,0,0,0,0,0,0,0,0,0,0,0,0,0,0,0,0,0,0,0,0,0,0,0,0,0,0,0,0,0,0,0,0,0,0,0,0,0,0,0,0,0,0,0,0,0,0,0,0,0,0,0,0,0,0,0,0,0,0,0,0,0,0,0,0,0,0,0,0,0,0,0,0,0,0,0,0,0,0,0,0,0,0,0,0,0,
0,0,0,0,0,0,0,0,0,0,0,0,0,0,0,0,0,0,0,0,0,0,0,0,0,0,0,0,0,0,0,0,0,0,0,0,0,0,0,0,0,0,0,0,0,0,0,0,0,0,0,0,0,0,0,0,0,0,0,0,0,0,0,0,0,0,0,0,0,0,0,0,0,0,0,0,0,0,0,0,0,0,0,0,0,0,0,0,0,0,0,0,0,0,0,0,0,0,0,0,0,0,0,0,0,0,0,0,0,0,0,0,0,0,0,0,0,0,0,0,0,0,0,0,0,0,0,0,0,0,0,0,0,0,0,0,0,0,0,0,0,0,0,0,0,0,0,0,0,0,0,0,0,0,0,0,0,0,0,0,0,0,0,0,0,0,0,0,0,0,0,0,0,0,0,0,0,0,0,0,0,0,0,0,0,0,0,0,0,0,0,0,0,0,0,0,0,0,0,0,0,0,0,0,0,0,0,0,0,0,0,0,0,
0,0,0,0,0,0,0,0,0,0,0,0,0,0,0,0,0,0,0,0,0,0,0,0,0,0,0,0,0,0,0,0,0,0,0,0,0,0,0,0,0,0,0,0,0,0,0,0,0,0,0,0,0,0,0,0,0,0,0,0,0,0,0,0,0,0,0,0,0,0,0,0,0,0,0,0,0,0,0,0,0,0,0,0,0,0,0,0,0,0,0,0,0,5,5,5,5,5,5,5,5,5,5,5,5,5,5,5,5,5,5,5,5,5,5,5,5,5,5,5,5,5,0,0,0,0,0,0,0,0,0,0,0,0,0,0,0,0,0,0,0,0,0,0,0,0,0,0,0,0,0,0,0,0,0,0,0,0,0,0,0,0,0,0,0,0,0,0,0,0,0,0,0,0,0,0,0,0,0,0,0,0,0,0,0,0,0,0,0,0,0,0,0,0,0,0,0,0,0,0,0,0,0,0,0,0,0,0,0,0,0,0,0,
0,0,0,0,0,0,0,0,0,0,0,0,0,0,0,0,0,0,0,0,0,0,0,0,0,0,0,0,0,0,0,0,0,0,0,0,0,0,0,0,0,0,0,0,0,0,0,0,0,0,0,0,0,0,0,0,0,0,0,0,0,0,0,0,0,0,0,0,0,0,0,0,0,0,0,0,0,0,0,0,0,0,0,0,0,0,0,0,0,0,0,0,0,5,5,5,5,5,5,5,5,5,5,5,5,5,5,5,5,5,5,5,5,5,5,5,5,5,5,5,5,5,0,0,0,0,0,0,0,0,0,0,0,0,0,0,0,0,0,0,0,0,0,0,0,0,0,0,0,0,0,0,0,0,0,0,0,0,0,0,0,0,0,0,0,0,0,0,0,0,0,0,0,0,0,0,0,0,0,0,0,0,0,0,0,0,0,0,0,0,0,0,0,0,0,0,0,0,0,0,0,0,0,0,0,0,0,0,0,0,0,0,0,
2,1,1,2,37,1,1,2,2,1,3,2,1,1,1,1,1,1,3,1,1,2,1,2,1,2,1,2,1,3,2,1,2,3,3,2,1,2,1,1,2,1,1,3,3,1,2,1,4,3,1,2,1,2,2,2,2,1,2,1,2,2,2,1,2,1,4,2,4,1,1,2,1,1,1,2,1,2,1,1,1,4,1,2,4,4,1,1,1,4,2,1,1,29,30,29,30,29,30,29,30,29,30,29,30,29,30,29,30,29,30,29,30,29,30,29,30,29,30,29,30,29,2,1,1,4,2,1,2,1,1,2,2,1,2,3,1,1,3,2,2,1,1,4,2,2,1,2,2,1,2,1,1,2,1,1,2,1,1,1,25,25,25,1,2,1,2,1,1,2,4,3,2,1,1,1,2,2,1,2,11,12,11,12,11,12,11,12,11,12,11,12,11,12,11,12,11,12,11,12,11,12,11,36,11,12,11,12,11,12,11,12,11,
9,9,9,9,36,9,9,9,9,9,9,9,9,9,9,9,9,9,9,9,9,9,9,9,9,9,9,9,9,9,9,9,1,1,1,4,1,4,1,3,1,3,2,1,1,2,2,2,1,4,1,3,2,3,1,1,1,1,3,1,3,3,4,3,1,2,1,1,2,2,4,1,3,3,1,1,3,4,4,4,1,2,4,2,1,1,3,1,4,4,1,1,1,30,29,30,29,30,29,30,29,30,29,30,29,30,29,30,29,30,29,30,29,30,29,30,29,30,29,30,29,30,2,1,1,1,1,1,1,2,1,2,1,2,2,1,1,2,1,1,4,2,1,3,2,1,4,1,1,3,2,4,3,1,1,2,2,1,1,1,25,25,25,1,1,3,1,1,2,2,1,2,2,2,2,1,2,2,1,13,12,11,12,11,12,11,12,11,12,11,12,11,12,11,12,11,12,11,12,11,12,11,12,37,12,11,12,11,12,11,12,11,12,
8,8,7,7,37,7,8,7,7,7,8,7,7,8,7,7,8,8,8,8,7,8,8,7,7,7,7,7,8,8,7,8,3,1,2,1,1,3,1,2,1,1,1,1,1,1,1,1,2,1,3,3,2,2,3,2,1,1,1,1,2,2,1,1,2,1,1,2,4,1,3,2,1,1,2,1,3,2,1,2,4,1,1,2,1,1,2,4,1,1,2,1,2,21,21,21,21,21,21,21,21,21,21,21,21,21,21,21,21,21,21,21,21,21,21,21,21,21,21,21,21,21,1,2,1,4,1,1,4,3,1,2,2,1,2,2,7,7,7,7,7,7,7,7,7,7,7,7,7,7,7,7,7,7,7,7,7,7,7,7,25,25,25,7,7,7,7,7,7,7,7,7,7,7,7,7,7,7,7,7,11,12,11,12,11,12,11,12,11,12,11,12,11,12,11,12,11,12,11,12,11,12,11,36,11,12,11,12,11,12,11,12,11,
8,7,7,8,36,8,7,7,7,8,7,7,8,7,7,7,8,8,7,7,7,7,8,7,7,8,7,8,7,8,7,7,2,2,2,2,2,1,1,2,1,2,2,1,2,2,1,2,4,1,4,1,1,4,1,4,1,3,2,2,2,1,1,3,1,2,2,2,3,4,1,1,2,1,1,1,1,2,3,1,2,1,1,1,2,2,1,1,4,1,1,1,1,17,17,17,17,17,17,17,17,17,17,17,17,17,17,17,17,17,17,17,17,17,17,17,17,17,17,17,17,17,3,1,2,1,1,2,2,3,4,2,2,1,1,2,7,7,7,7,7,7,7,7,7,7,7,7,7,7,7,7,7,7,7,7,7,7,7,7,7,7,7,7,7,7,7,7,7,7,7,7,7,7,7,7,7,7,7,7,12,11,12,11,12,11,12,11,12,11,12,11,12,11,12,11,12,11,12,11,12,11,12,37,12,11,12,11,12,11,12,11,12,
10,10,10,10,37,10,10,10,10,10,10,10,10,10,10,10,10,10,10,10,10,10,10,10,10,10,10,10,10,10,10,10,7,8,7,7,8,7,7,8,7,7,8,7,7,8,7,7,8,7,7,8,7,7,8,7,7,8,7,7,8,7,7,8,7,7,8,7,7,8,7,7,8,7,7,8,7,7,8,7,7,8,7,7,8,7,7,8,7,1,2,3,2,25,25,25,25,25,25,25,25,25,25,25,25,25,25,25,25,25,25,25,25,25,25,25,25,25,25,25,25,25,4,1,1,2,2,2,1,1,4,2,3,1,2,1,2,1,3,2,2,1,1,2,1,1,1,2,2,1,1,3,1,3,1,2,2,2,1,2,1,2,1,2,1,2,1,1,1,1,2,1,1,1,2,2,1,2,1,2,11,12,11,12,11,12,11,12,11,12,11,12,11,12,11,12,11,12,11,12,11,12,11,36,11,12,11,12,11,12,11,12,11,
1,1,3,1,36,1,1,1,1,1,2,2,1,1,1,1,1,1,2,1,1,1,1,2,1,2,1,2,2,2,1,1,8,7,7,8,7,7,8,7,7,8,7,7,8,7,7,8,7,7,8,7,7,8,7,7,8,7,7,8,7,7,8,7,7,8,7,7,8,7,7,8,7,7,8,7,7,8,7,7,8,7,7,8,7,7,8,7,7,1,1,4,2,25,25,25,25,25,25,25,25,25,25,25,25,25,25,25,25,25,25,25,25,25,25,25,25,25,25,25,25,25,1,4,2,2,2,1,1,2,1,2,1,1,2,4,2,2,3,1,2,2,1,2,2,2,1,1,4,1,1,1,3,2,1,2,1,2,1,1,1,2,2,1,1,2,2,2,2,1,3,2,2,2,1,1,1,1,1,1,12,11,12,11,12,11,12,11,12,11,12,11,12,11,12,11,12,11,12,11,12,11,12,37,12,11,12,11,12,11,12,11,12
  </data>
 </layer>
 <layer id="2" name="fachada" width="213" height="17">
  <data encoding="csv">
0,0,0,0,0,0,0,0,0,0,0,0,0,0,0,0,0,0,0,0,0,0,0,0,0,0,0,0,0,0,0,0,0,0,0,0,0,0,0,0,0,0,0,0,0,0,0,0,0,0,0,0,0,0,0,0,0,0,0,0,0,0,0,0,0,0,0,0,0,0,0,0,0,0,0,0,0,0,0,0,0,0,0,0,0,0,0,0,0,0,0,0,0,0,0,0,0,0,0,0,0,0,0,0,0,0,0,0,0,0,0,0,0,0,0,0,0,0,0,0,0,0,0,0,0,0,0,0,0,0,0,0,0,0,0,0,0,0,0,0,0,0,0,0,0,0,0,0,0,0,0,0,0,0,0,0,0,0,0,0,0,0,0,0,0,0,0,0,0,0,0,0,0,0,0,0,0,0,0,0,0,0,0,0,0,0,0,0,0,0,0,0,0,0,0,0,0,0,0,0,0,0,0,0,0,0,0,0,0,0,0,0,0,
0,0,0,0,0,0,0,0,0,0,0,0,0,0,0,0,0,0,0,0,0,0,0,0,0,0,0,0,0,0,0,0,0,0,0,0,0,0,0,0,0,0,0,0,0,0,0,0,0,0,0,0,0,0,0,0,0,0,0,0,0,0,0,0,0,0,0,0,0,0,0,0,0,0,0,0,0,0,0,0,0,0,0,0,0,0,0,0,0,0,0,0,0,0,0,0,0,0,0,0,0,0,0,0,0,0,0,0,0,0,0,0,0,0,0,0,0,0,0,0,0,0,0,0,0,0,0,0,0,0,0,0,0,0,0,0,0,0,0,0,0,0,0,0,0,0,0,0,0,0,0,0,0,0,0,0,0,0,0,0,0,0,0,0,0,0,0,0,0,0,0,0,0,0,0,0,0,0,0,0,0,0,0,0,0,0,0,0,0,0,0,0,0,0,0,0,0,0,0,0,0,0,0,0,0,0,0,0,0,0,0,0,0,
0,0,0,0,0,0,0,0,0,0,0,0,0,0,0,0,0,0,0,0,0,0,0,0,0,0,0,0,0,0,0,0,0,0,0,0,0,0,0,0,0,0,0,0,0,0,0,0,0,0,0,0,0,0,0,0,0,0,0,0,0,0,0,0,0,0,0,0,0,0,0,0,0,0,0,0,0,0,0,0,0,0,0,0,0,0,0,0,0,0,0,0,0,0,0,0,0,0,0,0,0,0,0,0,0,0,0,0,0,0,0,0,0,0,0,0,0,0,0,0,0,0,0,0,0,0,0,0,0,0,0,0,0,0,0,0,0,0,0,0,0,0,0,0,0,0,0,0,0,0,0,0,0,0,0,0,0,0,0,0,0,0,0,0,0,0,0,0,0,0,0,0,0,0,0,0,0,0,0,0,0,0,0,0,0,0,0,0,0,0,0,0,0,0,0,0,0,0,0,0,0,0,0,0,0,0,0,0,0,0,0,0,0,
0,0,0,0,0,0,0,0,0,0,0,0,0,0,0,0,0,0,0,0,0,0,0,0,0,0,0,0,0,0,0,0,0,0,0,0,0,0,0,0,0,0,0,0,0,0,0,0,0,0,0,0,0,0,0,0,0,0,0,0,0,0,0,0,0,0,0,0,0,0,0,0,0,0,0,0,0,0,0,0,0,0,0,0,0,0,0,0,0,0,0,0,0,0,0,0,0,0,0,0,0,0,0,0,0,0,0,0,0,0,0,0,0,0,0,0,0,0,0,0,0,0,0,0,0,0,0,0,0,0,0,0,0,0,0,0,0,0,0,0,0,0,0,0,0,0,0,0,0,0,0,0,0,0,0,0,0,0,0,0,0,0,0,0,0,0,0,0,0,0,0,0,0,0,0,0,0,0,0,0,0,0,0,0,0,0,0,0,0,0,0,0,0,0,0,0,0,0,0,0,0,0,0,0,0,0,0,0,0,0,0,0,0,
0,0,0,0,0,0,0,0,0,0,0,0,0,0,0,0,0,0,0,0,0,0,0,0,0,0,0,0,0,0,0,0,0,0,0,0,0,0,0,0,0,0,0,0,0,0,0,0,0,0,0,0,0,0,0,0,0,0,0,0,0,0,0,0,0,0,0,0,0,0,0,0,0,0,0,0,0,0,0,0,0,0,0,0,0,0,0,0,0,0,0,0,0,0,0,0,0,0,0,0,0,0,0,0,0,0,0,0,0,0,0,0,0,0,0,0,0,0,0,0,0,0,0,0,0,0,0,0,0,0,0,0,0,0,0,0,0,0,0,0,0,0,0,0,0,0,0,0,0,0,0,0,0,0,0,0,0,0,0,0,0,0,0,0,0,0,0,0,0,0,0,0,0,0,0,0,0,0,0,0,0,0,0,0,0,0,0,0,0,0,0,0,0,0,0,0,0,0,0,0,0,0,0,0,0,0,0,0,0,0,0,0,0,
0,0,0,0,0,0,0,0,0,0,0,0,0,0,0,0,0,0,0,0,0,0,0,0,0,0,0,0,0,0,0,0,0,0,0,0,0,0,0,0,0,0,0,0,0,0,0,0,0,0,0,0,0,0,0,0,0,0,0,0,0,0,0,0,0,0,0,0,0,0,0,0,0,0,0,0,0,0,0,0,0,0,0,0,0,0,0,0,0,0,0,0,0,0,0,0,0,0,0,0,0,0,0,0,0,0,0,0,0,0,0,0,0,0,0,0,0,0,0,0,0,0,0,0,0,0,0,0,0,0,0,0,0,0,0,0,0,0,0,0,0,0,0,0,0,0,0,0,0,0,0,0,0,0,0,0,0,0,0,0,0,0,0,0,0,0,0,0,0,0,0,0,0,0,0,0,0,0,0,0,0,0,0,0,0,0,0,0,0,0,0,0,0,0,0,0,0,0,0,0,0,0,0,0,0,0,0,0,0,0,0,0,0,
0,0,0,0,0,0,0,0,0,0,0,0,0,0,0,0,0,0,0,0,0,0,0,0,0,0,0,0,0,0,0,0,0,0,0,0,0,0,0,0,0,0,0,0,0,0,0,0,0,0,0,0,0,0,0,0,0,0,0,0,0,0,0,0,0,0,0,0,0,0,0,0,0,0,0,0,0,0,0,0,0,0,0,0,0,0,0,0,0,0,0,0,0,0,0,0,0,0,0,0,0,0,0,0,0,0,0,0,0,0,0,0,0,0,0,0,0,0,0,0,0,0,0,0,0,0,0,0,0,0,0,0,0,0,0,0,0,0,0,0,0,0,0,0,0,0,0,0,0,0,0,0,0,0,0,0,0,0,0,0,0,0,0,0,0,0,0,0,0,0,0,0,0,0,0,0,0,0,0,0,0,0,0,0,0,0,0,0,0,0,0,0,0,0,0,0,0,0,0,0,0,0,0,0,0,0,0,0,0,0,0,0,0,
0,0,0,0,0,0,0,0,0,0,0,0,0,0,0,0,0,0,0,0,0,0,0,0,0,0,0,0,0,0,0,0,0,0,0,0,0,0,0,0,0,0,0,0,0,0,0,0,0,0,0,0,0,0,0,0,0,0,0,0,0,0,0,0,0,0,0,0,0,0,0,0,0,0,0,0,0,0,0,0,0,0,0,0,0,0,0,0,0,0,0,0,0,0,0,0,0,0,0,0,0,0,0,0,0,0,0,0,0,0,0,0,0,0,0,0,0,0,0,0,0,0,0,0,0,0,0,0,0,0,0,0,0,0,0,0,0,0,0,0,0,0,0,0,0,0,0,0,0,0,0,0,0,0,0,0,0,0,0,0,0,0,0,0,0,0,0,0,0,0,0,0,0,0,0,0,0,0,0,0,0,0,0,0,0,0,0,0,0,0,0,0,0,0,0,0,0,0,0,0,0,0,0,0,0,0,0,0,0,0,0,0,0,
0,0,0,0,0,0,0,0,0,0,0,0,0,0,0,0,0,0,0,0,0,0,0,0,0,0,0,0,0,0,0,0,0,0,0,0,0,0,0,0,0,0,0,0,0,0,0,0,0,0,0,0,0,0,0,0,0,0,0,0,0,0,0,0,0,0,0,0,0,0,0,0,0,0,0,0,0,0,0,0,0,0,0,0,0,0,0,0,0,0,0,0,0,0,0,0,0,0,0,0,0,0,0,0,0,0,0,0,0,0,0,0,0,0,0,0,0,0,0,0,0,0,0,0,0,0,0,0,0,0,0,0,0,0,0,0,0,0,0,0,0,0,0,0,0,0,0,0,0,0,0,0,0,0,0,0,0,0,0,0,0,0,0,0,0,0,0,0,0,0,0,0,0,0,0,0,0,0,0,0,0,0,0,0,0,0,0,0,0,0,0,0,0,0,0,0,0,0,0,0,0,0,0,0,0,0,0,0,0,0,0,0,0,
33,33,33,33,33,33,33,33,33,33,33,33,33,33,33,33,33,33,33,33,33,33,33,33,33,33,33,33,33,33,33,33,33,33,33,33,33,33,33,33,33,33,33,33,33,33,33,33,33,33,33,33,33,33,33,33,33,33,33,33,33,33,33,33,33,33,33,33,33,33,33,33,33,33,33,33,33,33,33,33,33,33,33,33,33,33,33,33,33,33,33,33,33,33,33,33,33,33,33,33,33,33,33,33,33,33,33,33,33,33,33,33,33,33,33,33,33,33,33,33,33,33,33,33,33,33,33,33,33,33,33,33,33,33,33,33,33,33,33,33,33,33,33,33,33,33,33,33,33,33,33,33,33,33,33,33,33,33,33,33,33,33,33,33,33,33,33,33,33,33,33,33,33,33,33,33,33,33,33,33,33,33,33,33,33,33,33,33,33,33,33,33,33,33,33,33,33,33,33,33,33,33,33,33,33,33,33,33,33,33,33,33,33,
32,32,31,31,31,31,32,31,31,31,32,31,31,32,32,31,32,32,32,32,31,32,32,32,31,31,31,32,32,32,31,32,31,32,31,31,32,31,32,32,31,31,32,31,31,32,31,31,31,32,32,31,31,31,31,32,31,31,32,31,32,31,32,32,31,31,31,31,31,31,31,31,32,32,31,31,32,32,32,32,32,32,31,31,32,31,32,32,32,31,32,31,31,32,32,32,32,31,32,31,32,32,31,32,31,31,32,31,32,31,31,32,31,31,32,31,32,31,32,32,31,31,31,32,31,31,32,31,31,31,32,32,31,31,31,31,31,32,31,31,31,31,31,32,31,31,32,32,32,31,32,32,31,32,32,31,31,31,31,31,31,31,31,31,31,31,32,31,31,31,32,31,31,31,31,32,31,31,31,32,32,32,32,31,31,32,31,31,31,31,32,31,32,31,31,31,32,31,32,31,31,31,31,31,31,31,32,32,31,31,31,32,32,
0,0,0,0,0,0,0,0,0,0,0,0,0,0,0,0,0,0,0,0,0,0,0,0,0,0,0,0,0,0,0,0,0,0,0,0,0,0,0,0,0,0,0,0,0,0,0,0,0,0,0,0,0,0,0,0,0,0,0,0,0,0,0,0,0,0,0,0,0,0,0,0,0,0,0,0,0,0,0,0,0,0,0,0,0,0,0,0,0,0,0,0,0,0,0,0,0,0,0,0,0,0,0,0,0,0,0,0,0,0,0,0,0,0,0,0,0,0,0,0,0,0,0,0,0,0,0,0,0,0,0,0,0,0,0,0,0,0,0,0,0,0,0,0,0,0,0,0,0,0,0,0,0,0,0,0,0,0,0,0,0,0,0,0,0,0,0,0,0,0,0,0,0,0,0,0,0,0,0,0,0,0,0,0,0,0,0,0,0,0,0,0,0,0,0,0,0,0,0,0,0,0,0,0,0,0,0,0,0,0,0,0,0,
0,0,0,0,0,0,0,0,0,0,0,0,0,0,0,0,0,0,0,0,0,0,0,0,0,0,0,0,0,0,0,0,0,0,0,0,0,0,0,0,0,0,0,0,0,0,0,0,0,0,0,0,0,0,0,0,0,0,0,0,0,0,0,0,0,0,0,0,0,0,0,0,0,0,0,0,0,0,0,0,0,0,0,0,0,0,0,0,0,0,0,0,0,0,0,0,0,0,0,0,0,0,0,0,0,0,0,0,0,0,0,0,0,0,0,0,0,0,0,0,0,0,0,0,0,0,0,0,0,0,0,0,0,0,0,0,0,0,0,0,0,0,0,0,0,0,0,0,0,0,0,0,0,0,0,0,0,0,0,0,0,0,0,0,0,0,0,0,0,0,0,0,0,0,0,0,0,0,0,0,0,0,0,0,0,0,0,0,0,0,0,0,0,0,0,0,0,0,0,0,0,0,0,0,0,0,0,0,0,0,0,0,0,
0,0,0,0,0,0,0,0,0,0,0,0,0,0,0,0,0,0,0,0,0,0,0,0,0,0,0,0,0,0,0,0,0,0,0,0,0,0,0,0,0,0,0,0,0,0,0,0,0,0,0,0,0,0,0,0,0,0,0,0,0,0,0,0,0,0,0,0,0,0,0,0,0,0,0,0,0,0,0,0,0,0,0,0,0,0,0,0,0,0,0,0,0,0,0,0,0,0,0,0,0,0,0,0,0,0,0,0,0,0,0,0,0,0,0,0,0,0,0,0,0,0,0,0,0,0,0,0,0,0,0,0,0,0,0,0,0,0,0,0,0,0,0,0,0,0,0,0,0,0,0,0,0,0,0,0,0,0,0,0,0,0,0,0,0,0,0,0,0,0,0,0,0,0,0,0,0,0,0,0,0,0,0,0,0,0,0,0,0,0,0,0,0,0,0,0,0,0,0,0,0,0,0,0,0,0,0,0,0,0,0,0,0,
0,0,0,0,0,0,0,0,0,0,0,0,0,0,0,0,0,0,0,0,0,0,0,0,0,0,0,0,0,0,0,0,0,0,0,0,0,0,0,0,0,0,0,0,0,0,0,0,0,0,0,0,0,0,0,0,0,0,0,0,0,0,0,0,0,0,0,0,0,0,0,0,0,0,0,0,0,0,0,0,0,0,0,0,0,0,0,0,0,0,0,0,0,0,0,0,0,0,0,0,0,0,0,0,0,0,0,0,0,0,0,0,0,0,0,0,0,0,0,0,0,0,0,0,0,0,0,0,0,0,0,0,0,0,0,0,0,0,0,0,0,0,0,0,0,0,0,0,0,0,0,0,0,0,0,0,0,0,0,0,0,0,0,0,0,0,0,0,0,0,0,0,0,0,0,0,0,0,0,0,0,0,0,0,0,0,0,0,0,0,0,0,0,0,0,0,0,0,0,0,0,0,0,0,0,0,0,0,0,0,0,0,0,
0,0,0,0,0,0,0,0,0,0,0,0,0,0,0,0,0,0,0,0,0,0,0,0,0,0,0,0,0,0,0,0,0,0,0,0,0,0,0,0,0,0,0,0,0,0,0,0,0,0,0,0,0,0,0,0,0,0,0,0,0,0,0,0,0,0,0,0,0,0,0,0,0,0,0,0,0,0,0,0,0,0,0,0,0,0,0,0,0,0,0,0,0,0,0,0,0,0,0,0,0,0,0,0,0,0,0,0,0,0,0,0,0,0,0,0,0,0,0,0,0,0,0,0,0,0,0,0,0,0,0,0,0,0,0,0,0,0,0,0,0,0,0,0,0,0,0,0,0,0,0,0,0,0,0,0,0,0,0,0,0,0,0,0,0,0,0,0,0,0,0,0,0,0,0,0,0,0,0,0,0,0,0,0,0,0,0,0,0,0,0,0,0,0,0,0,0,0,0,0,0,0,0,0,0,0,0,0,0,0,0,0,0,
0,0,0,0,0,0,0,0,0,0,0,0,0,0,0,0,0,0,0,0,0,0,0,0,0,0,0,0,0,0,0,0,0,0,0,0,0,0,0,0,0,0,0,0,0,0,0,0,0,0,0,0,0,0,0,0,0,0,0,0,0,0,0,0,0,0,0,0,0,0,0,0,0,0,0,0,0,0,0,0,0,0,0,0,0,0,0,0,0,0,0,0,0,0,0,0,0,0,0,0,0,0,0,0,0,0,0,0,0,0,0,0,0,0,0,0,0,0,0,0,0,0,0,0,0,0,0,0,0,0,0,0,0,0,0,0,0,0,0,0,0,0,0,0,0,0,0,0,0,0,0,0,0,0,0,0,0,0,0,0,0,0,0,0,0,0,0,0,0,0,0,0,0,0,0,0,0,0,0,0,0,0,0,0,0,0,0,0,0,0,0,0,0,0,0,0,0,0,0,0,0,0,0,0,0,0,0,0,0,0,0,0,0
  </data>
 </layer>
 <layer id="3" name="deco_suelo" width="213" height="17">
  <data encoding="csv">
0,0,0,0,0,0,0,0,0,0,0,0,0,0,0,0,0,0,0,0,0,0,0,0,0,0,0,0,0,0,0,0,0,0,0,0,0,0,0,0,0,0,0,0,0,0,0,0,0,0,0,0,0,0,0,0,0,0,0,0,0,0,0,0,0,0,0,0,0,0,0,0,0,0,0,0,0,0,0,0,0,0,0,0,0,0,0,0,0,0,0,0,0,0,0,0,0,0,0,0,0,0,0,0,0,0,0,0,0,0,0,0,0,0,0,0,0,0,0,0,0,0,0,0,0,0,0,0,0,0,0,0,0,0,0,0,0,0,0,0,0,0,0,0,0,0,0,0,0,0,0,0,0,0,0,0,0,0,0,0,0,0,0,0,0,0,0,0,0,0,0,0,0,0,0,0,0,0,0,0,0,0,0,0,0,0,0,0,0,0,0,0,0,0,0,0,0,0,0,0,0,0,0,0,0,0,0,0,0,0,0,0,0,
0,0,0,0,0,0,0,0,0,0,0,0,0,0,0,0,0,0,0,0,0,0,0,0,0,0,0,0,0,0,0,0,0,0,0,0,0,0,0,0,0,0,0,0,0,0,0,0,0,0,0,0,0,0,0,0,0,0,0,0,0,0,0,0,0,0,0,0,0,0,0,0,0,0,0,0,0,0,0,0,0,0,0,0,0,0,0,0,0,0,0,0,0,0,0,0,0,0,0,0,0,0,0,0,0,0,0,0,0,0,0,0,0,0,0,0,0,0,0,0,0,0,0,0,0,0,0,0,0,0,0,0,0,0,0,0,0,0,0,0,0,0,0,0,0,0,0,0,0,0,0,0,0,0,0,0,0,0,0,0,0,0,0,0,0,0,0,0,0,0,0,0,0,0,0,0,0,0,0,0,0,0,0,0,0,0,0,0,0,0,0,0,0,0,0,0,0,0,0,0,0,0,0,0,0,0,0,0,0,0,0,0,0,
0,0,0,0,0,0,0,0,0,0,0,0,0,0,0,0,0,0,0,0,0,0,0,0,0,0,0,0,0,0,0,0,0,0,0,0,0,0,0,0,0,0,0,0,0,0,0,0,0,0,0,0,0,0,0,0,0,0,0,0,0,0,0,0,0,0,0,0,0,0,0,0,0,0,0,0,0,0,0,0,0,0,0,0,0,0,0,0,0,0,0,0,0,0,0,0,0,0,0,0,0,0,0,0,0,0,0,0,0,0,0,0,0,0,0,0,0,0,0,0,0,0,0,0,0,0,0,0,0,0,0,0,0,0,0,0,0,0,0,0,0,0,0,0,0,0,0,0,0,0,0,0,0,0,0,0,0,0,0,0,0,0,0,0,0,0,0,0,0,0,0,0,0,0,0,0,0,0,0,0,0,0,0,0,0,0,0,0,0,0,0,0,0,0,0,0,0,0,0,0,0,0,0,0,0,0,0,0,0,0,0,0,0,
0,0,0,0,0,0,0,0,0,0,0,0,0,0,0,0,0,0,0,0,0,0,0,0,0,0,0,0,0,0,0,0,0,0,0,0,0,0,0,0,0,0,0,0,0,0,0,0,0,0,0,0,0,0,0,0,0,0,0,0,0,0,0,0,0,0,0,0,0,0,0,0,0,0,0,0,0,0,0,0,0,0,0,0,0,0,0,0,0,0,0,0,0,0,0,0,0,0,0,0,0,0,0,0,0,0,0,0,0,0,0,0,0,0,0,0,0,0,0,0,0,0,0,0,0,0,0,0,0,0,0,0,0,0,0,0,0,0,0,0,0,0,0,0,0,0,0,0,0,0,0,0,0,0,0,0,0,0,0,0,0,0,0,0,0,0,0,0,0,0,0,0,0,0,0,0,0,0,0,0,0,0,0,0,0,0,0,0,0,0,0,0,0,0,0,0,0,0,0,0,0,0,0,0,0,0,0,0,0,0,0,0,0,
0,0,0,0,0,0,0,0,0,0,0,0,0,0,0,0,0,0,0,0,0,0,0,0,0,0,0,0,0,0,0,0,0,0,0,0,0,0,0,0,0,0,0,0,0,0,0,0,0,0,0,0,0,0,0,0,0,0,0,0,0,0,0,0,0,0,0,0,0,0,0,0,0,0,0,0,0,0,0,0,0,0,0,0,0,0,0,0,0,0,0,0,0,0,0,0,0,0,0,0,0,0,0,0,0,0,0,0,0,0,0,0,0,0,0,0,0,0,0,0,0,0,0,0,0,0,0,0,0,0,0,0,0,0,0,0,0,0,0,0,0,0,0,0,0,0,0,0,0,0,0,0,0,0,0,0,0,0,0,0,0,0,0,0,0,0,0,0,0,0,0,0,0,0,0,0,0,0,0,0,0,0,0,0,0,0,0,0,0,0,0,0,0,0,0,0,0,0,0,0,0,0,0,0,0,0,0,0,0,0,0,0,0,
0,0,0,0,0,0,0,0,0,0,0,0,0,0,0,0,0,0,0,0,0,0,0,0,0,0,0,0,0,0,0,0,0,0,0,0,0,0,0,0,0,0,0,0,0,0,0,0,0,0,0,0,0,0,0,0,0,0,0,0,0,0,0,0,0,0,0,0,0,0,0,0,0,0,0,0,0,0,0,0,0,0,0,0,0,0,0,0,0,0,0,0,0,0,0,0,0,0,0,0,0,0,0,0,0,0,0,0,0,0,0,0,0,0,0,0,0,0,0,0,0,0,0,0,0,0,0,0,0,0,0,0,0,0,0,0,0,0,0,0,0,0,0,0,0,0,0,0,0,0,0,0,0,0,0,0,0,0,0,0,0,0,0,0,0,0,0,0,0,0,0,0,0,0,0,0,0,0,0,0,0,0,0,0,0,0,0,0,0,0,0,0,0,0,0,0,0,0,0,0,0,0,0,0,0,0,0,0,0,0,0,0,0,
0,0,0,0,0,0,0,0,0,0,0,0,0,0,0,0,0,0,0,0,0,0,0,0,0,0,0,0,0,0,0,0,0,0,0,0,0,0,0,0,0,0,0,0,0,0,0,0,0,0,0,0,0,0,0,0,0,0,0,0,0,0,0,0,0,0,0,0,0,0,0,0,0,0,0,0,0,0,0,0,0,0,0,0,0,0,0,0,0,0,0,0,0,0,0,0,0,0,0,0,0,0,0,0,0,0,0,0,0,0,0,0,0,0,0,0,0,0,0,0,0,0,0,0,0,0,0,0,0,0,0,0,0,0,0,0,0,0,0,0,0,0,0,0,0,0,0,0,0,0,0,0,0,0,0,0,0,0,0,0,0,0,0,0,0,0,0,0,0,0,0,0,0,0,0,0,0,0,0,0,0,0,0,0,0,0,0,0,0,0,0,0,0,0,0,0,0,0,0,0,0,0,0,0,0,0,0,0,0,0,0,0,0,
0,0,0,0,0,0,0,0,0,0,0,0,0,0,0,0,0,0,0,0,0,0,0,0,0,0,0,0,0,0,0,0,0,0,0,0,0,0,0,0,0,0,0,0,0,0,0,0,0,0,0,0,0,0,0,0,0,0,0,0,0,0,0,0,0,0,0,0,0,0,0,0,0,0,0,0,0,0,0,0,0,0,0,0,0,0,0,0,0,0,0,0,0,0,0,0,0,0,0,0,0,0,0,0,0,0,0,0,0,0,0,0,0,0,0,0,0,0,0,0,0,0,0,0,0,0,0,0,0,0,0,0,0,0,0,0,0,0,0,0,0,0,0,0,0,0,0,0,0,0,0,0,0,0,0,0,0,0,0,0,0,0,0,0,0,0,0,0,0,0,0,0,0,0,0,0,0,0,0,0,0,0,0,0,0,0,0,0,0,0,0,0,0,0,0,0,0,0,0,0,0,0,0,0,0,0,0,0,0,0,0,0,0,
0,0,0,0,0,0,0,0,0,0,0,0,0,0,0,0,0,0,0,0,0,0,0,0,0,0,0,0,0,0,0,0,0,0,0,0,0,0,0,0,0,0,0,0,0,0,0,0,0,0,0,0,0,0,0,0,0,0,0,0,0,0,0,0,0,0,0,0,0,0,0,0,0,0,0,0,0,0,0,0,0,0,0,0,0,0,0,0,0,0,0,0,0,0,0,0,0,0,0,0,0,0,0,0,0,0,0,0,0,0,0,0,0,0,0,0,0,0,0,0,0,0,0,0,0,0,0,0,0,0,0,0,0,0,0,0,0,0,0,0,0,0,0,0,0,0,0,0,0,0,0,0,0,0,0,0,0,0,0,0,0,0,0,0,0,0,0,0,0,0,0,0,0,0,0,0,0,0,0,0,0,0,0,0,0,0,0,0,0,0,0,0,0,0,0,0,0,0,0,0,0,0,0,0,0,0,0,0,0,0,0,0,0,
0,0,0,0,0,0,0,0,0,0,0,0,0,0,0,0,0,0,0,0,0,0,0,0,0,0,0,0,0,0,0,0,0,0,0,0,0,0,0,0,0,0,0,0,0,0,0,0,0,0,0,0,0,0,0,0,0,0,0,0,0,0,0,0,0,0,0,0,0,0,0,0,0,0,0,0,0,0,0,0,0,0,0,0,0,0,0,0,0,0,0,0,0,0,0,0,0,0,0,0,0,0,0,0,0,0,0,0,0,0,0,0,0,0,0,0,0,0,0,0,0,0,0,0,0,0,0,0,0,0,0,0,0,0,0,0,0,0,0,0,0,0,0,0,0,0,0,0,0,0,0,0,0,0,0,0,0,0,0,0,0,0,0,0,0,0,0,0,0,0,0,0,0,0,0,0,0,0,0,0,0,0,0,0,0,0,0,0,0,0,0,0,0,0,0,0,0,0,0,0,0,0,0,0,0,0,0,0,0,0,0,0,0,
0,0,0,0,0,0,0,0,0,0,0,0,0,0,0,0,0,0,0,0,0,0,0,0,0,0,0,0,0,0,0,0,0,0,0,0,0,0,0,0,0,0,0,0,0,0,0,0,0,0,0,0,0,0,0,0,0,0,0,0,0,0,0,0,0,0,0,0,0,0,0,0,0,0,0,0,0,0,0,0,0,0,0,0,0,0,0,0,0,0,0,0,0,0,0,0,0,0,0,0,0,0,0,0,0,0,0,0,0,0,0,0,0,0,0,0,0,0,0,0,0,0,0,0,0,0,0,0,0,0,0,0,0,0,0,0,0,0,0,0,0,0,0,0,0,0,0,0,0,0,0,0,0,0,0,0,0,0,0,0,0,0,0,0,0,0,0,0,0,0,0,0,0,0,0,0,0,0,0,0,0,0,0,0,0,0,0,0,0,0,0,0,0,0,0,0,0,0,0,0,0,0,0,0,0,0,0,0,0,0,0,0,0,
0,0,0,0,0,0,0,0,0,0,0,0,0,0,0,0,0,0,0,0,0,0,0,0,0,0,0,0,0,0,0,0,0,0,0,0,0,0,0,0,0,0,0,0,0,0,0,0,0,0,0,0,0,0,0,0,0,0,0,0,0,0,0,0,0,0,0,0,0,0,0,0,0,0,0,0,0,0,0,0,0,0,0,0,0,0,0,0,0,0,0,0,0,0,0,0,0,0,0,0,0,0,0,0,0,0,0,0,0,0,0,0,0,0,0,0,0,0,0,0,0,0,0,0,0,0,0,0,0,0,0,0,0,0,0,0,0,0,0,0,0,0,0,0,0,0,0,0,0,0,0,0,0,0,0,0,0,0,0,0,0,0,0,0,0,0,0,0,0,0,0,0,0,0,0,0,0,0,0,0,0,0,0,0,0,0,0,0,0,0,0,0,0,0,0,0,0,0,0,0,0,0,0,0,0,0,0,0,0,0,0,0,0,
0,0,0,0,0,0,0,0,0,0,0,0,0,0,0,0,0,0,0,0,0,0,0,0,0,0,0,0,0,0,0,0,0,0,0,0,0,0,0,0,0,0,0,0,0,0,0,0,0,0,0,0,0,0,0,0,0,0,0,0,0,0,0,0,0,0,0,0,0,0,0,0,0,0,0,0,0,0,0,0,0,0,0,0,0,0,0,0,0,0,0,0,0,0,0,0,0,0,0,0,0,0,0,0,0,0,0,0,0,0,0,0,0,0,0,0,0,0,0,0,0,0,0,0,0,0,0,0,0,0,0,0,0,0,0,0,0,0,0,0,0,0,0,0,0,0,0,0,0,0,0,0,0,0,0,0,0,0,0,0,0,0,0,0,0,0,0,0,0,0,0,0,0,0,0,0,0,0,0,0,0,0,0,0,0,0,0,0,0,0,0,0,0,0,0,0,0,0,0,0,0,0,0,0,0,0,0,0,0,0,0,0,0,
0,0,0,0,0,0,0,0,0,0,0,0,0,0,0,0,0,0,0,0,0,0,0,0,0,0,0,0,0,0,0,0,0,0,0,0,0,0,0,0,0,0,0,0,0,0,0,0,0,0,0,0,0,0,0,0,0,0,0,0,0,0,0,0,0,0,0,0,0,0,0,0,0,0,0,0,0,0,0,0,0,0,0,0,0,0,0,0,0,0,0,0,0,0,0,0,0,0,0,0,0,0,0,0,0,0,0,0,0,0,0,0,0,0,0,0,0,0,0,0,0,0,0,0,0,0,0,0,0,0,0,0,0,0,0,0,0,0,0,0,0,0,0,0,0,0,0,0,0,0,0,0,0,0,0,0,0,0,0,0,0,0,0,0,0,0,0,0,0,0,0,0,0,0,0,0,0,0,0,0,0,0,0,0,0,0,0,0,0,0,0,0,0,0,0,0,0,0,0,0,0,0,0,0,0,0,0,0,0,0,0,0,0,
0,0,0,0,0,0,0,0,0,0,0,0,0,0,0,0,0,0,0,0,0,0,0,0,0,0,0,0,0,0,0,0,0,0,0,0,0,0,0,0,0,0,0,0,0,0,0,0,0,0,0,0,0,0,0,0,0,0,0,0,0,0,0,0,0,0,0,0,0,0,0,0,0,0,0,0,0,0,0,0,0,0,0,0,0,0,0,0,0,0,0,0,0,0,0,0,0,0,0,0,0,0,0,0,0,0,0,0,0,0,0,0,0,0,0,0,0,0,0,0,0,0,0,0,0,0,0,0,0,0,0,0,0,0,0,0,0,0,0,0,0,0,0,0,0,0,0,0,0,0,0,0,0,0,0,0,0,0,0,0,0,0,0,0,0,0,0,0,0,0,0,0,0,0,0,0,0,0,0,0,0,0,0,0,0,0,0,0,0,0,0,0,0,0,0,0,0,0,0,0,0,0,0,0,0,0,0,0,0,0,0,0,0,
0,0,0,0,0,0,0,0,0,0,0,0,0,0,0,0,0,0,0,0,0,0,0,0,0,0,0,0,0,0,0,0,0,0,0,0,0,0,0,0,0,0,0,0,0,0,0,0,0,0,0,0,0,0,0,0,0,0,0,0,0,0,0,0,0,0,0,0,0,0,0,0,0,0,0,0,0,0,0,0,0,0,0,0,0,0,0,0,0,0,0,0,0,0,0,0,0,0,0,0,0,0,0,0,0,0,0,0,0,0,0,0,0,0,0,0,0,0,0,0,0,0,0,0,0,0,0,0,0,0,0,0,0,0,0,0,0,0,0,0,0,0,0,0,0,0,0,0,0,0,0,0,0,0,0,0,0,0,0,0,0,0,0,0,0,0,0,0,0,0,0,0,0,0,0,0,0,0,0,0,0,0,0,0,0,0,0,0,0,0,0,0,0,0,0,0,0,0,0,0,0,0,0,0,0,0,0,0,0,0,0,0,0,
0,0,0,0,0,0,0,0,0,0,0,0,0,0,0,0,0,0,0,0,0,0,0,0,0,0,0,0,0,0,0,0,0,0,0,0,0,0,0,0,0,0,0,0,0,0,0,0,0,0,0,0,0,0,0,0,0,0,0,0,0,0,0,0,0,0,0,0,0,0,0,0,0,0,0,0,0,0,0,0,0,0,0,0,0,0,0,0,0,0,0,0,0,0,0,0,0,0,0,0,0,0,0,0,0,0,0,0,0,0,0,0,0,0,0,0,0,0,0,0,0,0,0,0,0,0,0,0,0,0,0,0,0,0,0,0,0,0,0,0,0,0,0,0,0,0,0,0,0,0,0,0,0,0,0,0,0,0,0,0,0,0,0,0,0,0,0,0,0,0,0,0,0,0,0,0,0,0,0,0,0,0,0,0,0,0,0,0,0,0,0,0,0,0,0,0,0,0,0,0,0,0,0,0,0,0,0,0,0,0,0,0,0
  </data>
 </layer>
 <layer id="4" name="frente" width="213" height="17">
  <data encoding="csv">
0,0,0,0,0,0,0,0,0,0,0,0,0,0,0,0,0,0,0,0,0,0,0,0,0,0,0,0,0,0,0,0,0,0,0,0,0,0,0,0,0,0,0,0,0,0,0,0,0,0,0,0,0,0,0,0,0,0,0,0,0,0,0,0,0,0,0,0,0,0,0,0,0,0,0,0,0,0,0,0,0,0,0,0,0,0,0,0,0,0,0,0,0,0,0,0,0,0,0,0,0,0,0,0,0,0,0,0,0,0,0,0,0,0,0,0,0,0,0,0,0,0,0,0,0,0,0,0,0,0,0,0,0,0,0,0,0,0,0,0,0,0,0,0,0,0,0,0,0,0,0,0,0,0,0,0,0,0,0,0,0,0,0,0,0,0,0,0,0,0,0,0,0,0,0,0,0,0,0,0,0,0,0,0,0,0,0,0,0,0,0,0,0,0,0,0,0,0,0,0,0,0,0,0,0,0,0,0,0,0,0,0,0,
0,0,0,0,0,0,0,0,0,0,0,0,0,0,0,0,0,0,0,0,0,0,0,0,0,0,0,0,0,0,0,0,0,0,0,0,0,0,0,0,0,0,0,0,0,0,0,0,0,0,0,0,0,0,0,0,0,0,0,0,0,0,0,0,0,0,0,0,0,0,0,0,0,0,0,0,0,0,0,0,0,0,0,0,0,0,0,0,0,0,0,0,0,0,0,0,0,0,0,0,0,0,0,0,0,0,0,0,0,0,0,0,0,0,0,0,0,0,0,0,0,0,0,0,0,0,0,0,0,0,0,0,0,0,0,0,0,0,0,0,0,0,0,0,0,0,0,0,0,0,0,0,0,0,0,0,0,0,0,0,0,0,0,0,0,0,0,0,0,0,0,0,0,0,0,0,0,0,0,0,0,0,0,0,0,0,0,0,0,0,0,0,0,0,0,0,0,0,0,0,0,0,0,0,0,0,0,0,0,0,0,0,0,
0,0,0,0,0,0,0,0,0,0,0,0,0,0,0,0,0,0,0,0,0,0,0,0,0,0,0,0,0,0,0,0,0,0,0,0,0,0,0,0,0,0,0,0,0,0,0,0,0,0,0,0,0,0,0,0,0,0,0,0,0,0,0,0,0,0,0,0,0,0,0,0,0,0,0,0,0,0,0,0,0,0,0,0,0,0,0,0,0,0,0,0,0,0,0,0,0,0,0,0,0,0,0,0,0,0,0,0,0,0,0,0,0,0,0,0,0,0,0,0,0,0,0,0,0,0,0,0,0,0,0,0,0,0,0,0,0,0,0,0,0,0,0,0,0,0,0,0,0,0,0,0,0,0,0,0,0,0,0,0,0,0,0,0,0,0,0,0,0,0,0,0,0,0,0,0,0,0,0,0,0,0,0,0,0,0,0,0,0,0,0,0,0,0,0,0,0,0,0,0,0,0,0,0,0,0,0,0,0,0,0,0,0,
0,0,0,0,0,0,0,0,0,0,0,0,0,0,0,0,0,0,0,0,0,0,0,0,0,0,0,0,0,0,0,0,0,0,0,0,0,0,0,0,0,0,0,0,0,0,0,0,0,0,0,0,0,0,0,0,0,0,0,0,0,0,0,0,0,0,0,0,0,0,0,0,0,0,0,0,0,0,0,0,0,0,0,0,0,0,0,0,0,0,0,0,0,0,0,0,0,0,0,0,0,0,0,0,0,0,0,0,0,0,0,0,0,0,0,0,0,0,0,0,0,0,0,0,0,0,0,0,0,0,0,0,0,0,0,0,0,0,0,0,0,0,0,0,0,0,0,0,0,0,0,0,0,0,0,0,0,0,0,0,0,0,0,0,0,0,0,0,0,0,0,0,0,0,0,0,0,0,0,0,0,0,0,0,0,0,0,0,0,0,0,0,0,0,0,0,0,0,0,0,0,0,0,0,0,0,0,0,0,0,0,0,0,
0,0,0,0,0,0,0,0,0,0,0,0,0,0,0,0,0,0,0,0,0,0,0,0,0,0,0,0,0,0,0,0,0,0,0,0,0,0,0,0,0,0,0,0,0,0,0,0,0,0,0,0,0,0,0,0,0,0,0,0,0,0,0,0,0,0,0,0,0,0,0,0,0,0,0,0,0,0,0,0,0,0,0,0,0,0,0,0,0,0,0,0,0,0,0,0,0,0,0,0,0,0,0,0,0,0,0,0,0,0,0,0,0,0,0,0,0,0,0,0,0,0,0,0,0,0,0,0,0,0,0,0,0,0,0,0,0,0,0,0,0,0,0,0,0,0,0,0,0,0,0,0,0,0,0,0,0,0,0,0,0,0,0,0,0,0,0,0,0,0,0,0,0,0,0,0,0,0,0,0,0,0,0,0,0,0,0,0,0,0,0,0,0,0,0,0,0,0,0,0,0,0,0,0,0,0,0,0,0,0,0,0,0,
0,0,0,0,0,0,0,0,0,0,0,0,0,0,0,0,0,0,0,0,0,0,0,0,0,0,0,0,0,0,0,0,0,0,0,0,0,0,0,0,0,0,0,0,0,0,0,0,0,0,0,0,0,0,0,0,0,0,0,0,0,0,0,0,0,0,0,0,0,0,0,0,0,0,0,0,0,0,0,0,0,0,0,0,0,0,0,0,0,0,0,0,0,0,0,0,0,0,0,0,0,0,0,0,0,0,0,0,0,0,0,0,0,0,0,0,0,0,0,0,0,0,0,0,0,0,0,0,0,0,0,0,0,0,0,0,0,0,0,0,0,0,0,0,0,0,0,0,0,0,0,0,0,0,0,0,0,0,0,0,0,0,0,0,0,0,0,0,0,0,0,0,0,0,0,0,0,0,0,0,0,0,0,0,0,0,0,0,0,0,0,0,0,0,0,0,0,0,0,0,0,0,0,0,0,0,0,0,0,0,0,0,0,
0,0,0,0,0,0,0,0,0,0,0,0,0,0,0,0,0,0,0,0,0,0,0,0,0,0,0,0,0,0,0,0,0,0,0,0,0,0,0,0,0,0,0,0,0,0,0,0,0,0,0,0,0,0,0,0,0,0,0,0,0,0,0,0,0,0,0,0,0,0,0,0,0,0,0,0,0,0,0,0,0,0,0,0,0,0,0,0,0,0,0,0,0,0,0,0,0,0,0,0,0,0,0,0,0,0,0,0,0,0,0,0,0,0,0,0,0,0,0,0,0,0,0,0,0,0,0,0,0,0,0,0,0,0,0,0,0,0,0,0,0,0,0,0,0,0,0,0,0,0,0,0,0,0,0,0,0,0,0,0,0,0,0,0,0,0,0,0,0,0,0,0,0,0,0,0,0,0,0,0,0,0,0,0,0,0,0,0,0,0,0,0,0,0,0,0,0,0,0,0,0,0,0,0,0,0,0,0,0,0,0,0,0,
0,0,0,0,0,0,0,0,0,0,0,0,0,0,0,0,0,0,0,0,0,0,0,0,0,0,0,0,0,0,0,0,0,0,0,0,0,0,0,0,0,0,0,0,0,0,0,0,0,0,0,0,0,0,0,0,0,0,0,0,0,0,0,0,0,0,0,0,0,0,0,0,0,0,0,0,0,0,0,0,0,0,0,0,0,0,0,0,0,0,0,0,0,0,0,0,0,0,0,0,0,0,0,0,0,0,0,0,0,0,0,0,0,0,0,0,0,0,0,0,0,0,0,0,0,0,0,0,0,0,0,0,0,0,0,0,0,0,0,0,0,0,0,0,0,0,0,0,0,0,0,0,0,0,0,0,0,0,0,0,0,0,0,0,0,0,0,0,0,0,0,0,0,0,0,0,0,0,0,0,0,0,0,0,0,0,0,0,0,0,0,0,0,0,0,0,0,0,0,0,0,0,0,0,0,0,0,0,0,0,0,0,0,
0,0,0,0,0,0,0,0,0,0,0,0,0,0,0,0,0,0,0,0,0,0,0,0,0,0,0,0,0,0,0,0,0,0,0,0,0,0,0,0,0,0,0,0,0,0,0,0,0,0,0,0,0,0,0,0,0,0,0,0,0,0,0,0,0,0,0,0,0,0,0,0,0,0,0,0,0,0,0,0,0,0,0,0,0,0,0,0,0,0,0,0,0,0,0,0,0,0,0,0,0,0,0,0,0,0,0,0,0,0,0,0,0,0,0,0,0,0,0,0,0,0,0,0,0,0,0,0,0,0,0,0,0,0,0,0,0,0,0,0,0,0,0,0,0,0,0,0,0,0,0,0,0,0,0,0,0,0,0,0,0,0,0,0,0,0,0,0,0,0,0,0,0,0,0,0,0,0,0,0,0,0,0,0,0,0,0,0,0,0,0,0,0,0,0,0,0,0,0,0,0,0,0,0,0,0,0,0,0,0,0,0,0,
0,0,0,0,0,0,0,0,0,0,0,0,0,0,0,0,0,0,0,0,0,0,0,0,0,0,0,0,0,0,0,0,0,0,0,0,0,0,0,0,0,0,0,0,0,0,0,0,0,0,0,0,0,0,0,0,0,0,0,0,0,0,0,0,0,0,0,0,0,0,0,0,0,0,0,0,0,0,0,0,0,0,0,0,0,0,0,0,0,0,0,0,0,0,0,0,0,0,0,0,0,0,0,0,0,0,0,0,0,0,0,0,0,0,0,0,0,0,0,0,0,0,0,0,0,0,0,0,0,0,0,0,0,0,0,0,0,0,0,0,0,0,0,0,0,0,0,0,0,0,0,0,0,0,0,0,0,0,0,0,0,0,0,0,0,0,0,0,0,0,0,0,0,0,0,0,0,0,0,0,0,0,0,0,0,0,0,0,0,0,0,0,0,0,0,0,0,0,0,0,0,0,0,0,0,0,0,0,0,0,0,0,0,
0,0,0,0,0,0,0,0,0,0,0,0,0,0,0,0,0,0,0,0,0,0,0,0,0,0,0,0,0,0,0,0,0,0,0,0,0,0,0,0,0,0,0,0,0,0,0,0,0,0,0,0,0,0,0,0,0,0,0,0,0,0,0,0,0,0,0,0,0,0,0,0,0,0,0,0,0,0,0,0,0,0,0,0,0,0,0,0,0,0,0,0,0,0,0,0,0,0,0,0,0,0,0,0,0,0,0,0,0,0,0,0,0,0,0,0,0,0,0,0,0,0,0,0,0,0,0,0,0,0,0,0,0,0,0,0,0,0,0,0,0,0,0,0,0,0,0,0,0,0,0,0,0,0,0,0,0,0,0,0,0,0,0,0,0,0,0,0,0,0,0,0,0,0,0,0,0,0,0,0,0,0,0,0,0,0,0,0,0,0,0,0,0,0,0,0,0,0,0,0,0,0,0,0,0,0,0,0,0,0,0,0,0,
0,0,0,0,0,0,0,0,0,0,0,0,0,0,0,0,0,0,0,0,0,0,0,0,0,0,0,0,0,0,0,0,0,0,0,0,0,0,0,0,0,0,0,0,0,0,0,0,0,0,0,0,0,0,0,0,0,0,0,0,0,0,0,0,0,0,0,0,0,0,0,0,0,0,0,0,0,0,0,0,0,0,0,0,0,0,0,0,0,0,0,0,0,0,0,0,0,0,0,0,0,0,0,0,0,0,0,0,0,0,0,0,0,0,0,0,0,0,0,0,0,0,0,0,0,0,0,0,0,0,0,0,0,0,0,0,0,0,0,0,0,0,0,0,0,0,0,0,0,0,0,0,0,0,0,0,0,0,0,0,0,0,0,0,0,0,0,0,0,0,0,0,0,0,0,0,0,0,0,0,0,0,0,0,0,0,0,0,0,0,0,0,0,0,0,0,0,0,0,0,0,0,0,0,0,0,0,0,0,0,0,0,0,
0,0,0,0,0,0,0,0,0,0,0,0,0,0,0,0,0,0,0,0,0,0,0,0,0,0,0,0,0,0,0,0,0,0,0,0,0,0,0,0,0,0,0,0,0,0,0,0,0,0,0,0,0,0,0,0,0,0,0,0,0,0,0,0,0,0,0,0,0,0,0,0,0,0,0,0,0,0,0,0,0,0,0,0,0,0,0,0,0,0,0,0,0,0,0,0,0,0,0,0,0,0,0,0,0,0,0,0,0,0,0,0,0,0,0,0,0,0,0,0,0,0,0,0,0,0,0,0,0,0,0,0,0,0,0,0,0,0,0,0,0,0,0,0,0,0,0,0,0,0,0,0,0,0,0,0,0,0,0,0,0,0,0,0,0,0,0,0,0,0,0,0,0,0,0,0,0,0,0,0,0,0,0,0,0,0,0,0,0,0,0,0,0,0,0,0,0,0,0,0,0,0,0,0,0,0,0,0,0,0,0,0,0,
0,0,0,0,0,0,0,0,0,0,0,0,0,0,0,0,0,0,0,0,0,0,0,0,0,0,0,0,0,0,0,0,0,0,0,0,0,0,0,0,0,0,0,0,0,0,0,0,0,0,0,0,0,0,0,0,0,0,0,0,0,0,0,0,0,0,0,0,0,0,0,0,0,0,0,0,0,0,0,0,0,0,0,0,0,0,0,0,0,0,0,0,0,0,0,0,0,0,0,0,0,0,0,0,0,0,0,0,0,0,0,0,0,0,0,0,0,0,0,0,0,0,0,0,0,0,0,0,0,0,0,0,0,0,0,0,0,0,0,0,0,0,0,0,0,0,0,0,0,0,0,0,0,0,0,0,0,0,0,0,0,0,0,0,0,0,0,0,0,0,0,0,0,0,0,0,0,0,0,0,0,0,0,0,0,0,0,0,0,0,0,0,0,0,0,0,0,0,0,0,0,0,0,0,0,0,0,0,0,0,0,0,0,
0,0,0,0,0,0,0,0,0,0,0,0,0,0,0,0,0,0,0,0,0,0,0,0,0,0,0,0,0,0,0,0,0,0,0,0,0,0,0,0,0,0,0,0,0,0,0,0,0,0,0,0,0,0,0,0,0,0,0,0,0,0,0,0,0,0,0,0,0,0,0,0,0,0,0,0,0,0,0,0,0,0,0,0,0,0,0,0,0,0,0,0,0,0,0,0,0,0,0,0,0,0,0,0,0,0,0,0,0,0,0,0,0,0,0,0,0,0,0,0,0,0,0,0,0,0,0,0,0,0,0,0,0,0,0,0,0,0,0,0,0,0,0,0,0,0,0,0,0,0,0,0,0,0,0,0,0,0,0,0,0,0,0,0,0,0,0,0,0,0,0,0,0,0,0,0,0,0,0,0,0,0,0,0,0,0,0,0,0,0,0,0,0,0,0,0,0,0,0,0,0,0,0,0,0,0,0,0,0,0,0,0,0,
0,0,0,0,0,0,0,0,0,0,0,0,0,0,0,0,0,0,0,0,0,0,0,0,0,0,0,0,0,0,0,0,0,0,0,0,0,0,0,0,0,0,0,0,0,0,0,0,0,0,0,0,0,0,0,0,0,0,0,0,0,0,0,0,0,0,0,0,0,0,0,0,0,0,0,0,0,0,0,0,0,0,0,0,0,0,0,0,0,0,0,0,0,0,0,0,0,0,0,0,0,0,0,0,0,0,0,0,0,0,0,0,0,0,0,0,0,0,0,0,0,0,0,0,0,0,0,0,0,0,0,0,0,0,0,0,0,0,0,0,0,0,0,0,0,0,0,0,0,0,0,0,0,0,0,0,0,0,0,0,0,0,0,0,0,0,0,0,0,0,0,0,0,0,0,0,0,0,0,0,0,0,0,0,0,0,0,0,0,0,0,0,0,0,0,0,0,0,0,0,0,0,0,0,0,0,0,0,0,0,0,0,0,
0,0,0,0,0,0,0,0,0,0,0,0,0,0,0,0,0,0,0,0,0,0,0,0,0,0,0,0,0,0,0,0,0,0,0,0,0,0,0,0,0,0,0,0,0,0,0,0,0,0,0,0,0,0,0,0,0,0,0,0,0,0,0,0,0,0,0,0,0,0,0,0,0,0,0,0,0,0,0,0,0,0,0,0,0,0,0,0,0,0,0,0,0,0,0,0,0,0,0,0,0,0,0,0,0,0,0,0,0,0,0,0,0,0,0,0,0,0,0,0,0,0,0,0,0,0,0,0,0,0,0,0,0,0,0,0,0,0,0,0,0,0,0,0,0,0,0,0,0,0,0,0,0,0,0,0,0,0,0,0,0,0,0,0,0,0,0,0,0,0,0,0,0,0,0,0,0,0,0,0,0,0,0,0,0,0,0,0,0,0,0,0,0,0,0,0,0,0,0,0,0,0,0,0,0,0,0,0,0,0,0,0,0
  </data>
 </layer>
 <objectgroup id="5" name="props_fondo">
 </objectgroup>
 <objectgroup id="6" name="props_suelo">
  <object id="2" name="seto" type="" gid="31" x="600" y="224" width="16" height="16"/>
  <object id="3" name="seto_top" type="" gid="33" x="600" y="208" width="16" height="16"/>
  <object id="5" name="seto" type="" gid="31" x="616" y="224" width="16" height="16"/>
  <object id="6" name="seto_top" type="" gid="33" x="616" y="208" width="16" height="16"/>
  <object id="8" name="seto" type="" gid="31" x="632" y="224" width="16" height="16"/>
  <object id="9" name="seto_top" type="" gid="33" x="632" y="208" width="16" height="16"/>
  <object id="11" name="seto" type="" gid="31" x="648" y="224" width="16" height="16"/>
  <object id="12" name="seto_top" type="" gid="33" x="648" y="208" width="16" height="16"/>
  <object id="14" name="seto" type="" gid="31" x="664" y="224" width="16" height="16"/>
  <object id="15" name="seto_top" type="" gid="33" x="664" y="208" width="16" height="16"/>
  <object id="17" name="seto" type="" gid="31" x="680" y="224" width="16" height="16"/>
  <object id="18" name="seto_top" type="" gid="33" x="680" y="208" width="16" height="16"/>
  <object id="20" name="seto" type="" gid="31" x="696" y="224" width="16" height="16"/>
  <object id="21" name="seto_top" type="" gid="33" x="696" y="208" width="16" height="16"/>
  <object id="23" name="seto" type="" gid="31" x="712" y="224" width="16" height="16"/>
  <object id="24" name="seto_top" type="" gid="33" x="712" y="208" width="16" height="16"/>
  <object id="26" name="seto" type="" gid="31" x="728" y="224" width="16" height="16"/>
  <object id="27" name="seto_top" type="" gid="33" x="728" y="208" width="16" height="16"/>
  <object id="29" name="seto" type="" gid="31" x="744" y="224" width="16" height="16"/>
  <object id="30" name="seto_top" type="" gid="33" x="744" y="208" width="16" height="16"/>
  <object id="32" name="seto" type="" gid="31" x="760" y="224" width="16" height="16"/>
  <object id="33" name="seto_top" type="" gid="33" x="760" y="208" width="16" height="16"/>
  <object id="35" name="seto" type="" gid="31" x="776" y="224" width="16" height="16"/>
  <object id="36" name="seto_top" type="" gid="33" x="776" y="208" width="16" height="16"/>
  <object id="38" name="seto" type="" gid="31" x="792" y="224" width="16" height="16"/>
  <object id="39" name="seto_top" type="" gid="33" x="792" y="208" width="16" height="16"/>
  <object id="41" name="seto" type="" gid="31" x="808" y="224" width="16" height="16"/>
  <object id="42" name="seto_top" type="" gid="33" x="808" y="208" width="16" height="16"/>
  <object id="44" name="seto" type="" gid="31" x="824" y="224" width="16" height="16"/>
  <object id="45" name="seto_top" type="" gid="33" x="824" y="208" width="16" height="16"/>
  <object id="47" name="seto" type="" gid="31" x="840" y="224" width="16" height="16"/>
  <object id="48" name="seto_top" type="" gid="33" x="840" y="208" width="16" height="16"/>
  <object id="50" name="seto" type="" gid="31" x="856" y="224" width="16" height="16"/>
  <object id="51" name="seto_top" type="" gid="33" x="856" y="208" width="16" height="16"/>
  <object id="53" name="seto" type="" gid="31" x="872" y="224" width="16" height="16"/>
  <object id="54" name="seto_top" type="" gid="33" x="872" y="208" width="16" height="16"/>
  <object id="56" name="seto" type="" gid="31" x="888" y="224" width="16" height="16"/>
  <object id="57" name="seto_top" type="" gid="33" x="888" y="208" width="16" height="16"/>
  <object id="59" name="seto" type="" gid="31" x="904" y="224" width="16" height="16"/>
  <object id="60" name="seto_top" type="" gid="33" x="904" y="208" width="16" height="16"/>
  <object id="62" name="seto" type="" gid="31" x="920" y="224" width="16" height="16"/>
  <object id="63" name="seto_top" type="" gid="33" x="920" y="208" width="16" height="16"/>
  <object id="65" name="seto" type="" gid="31" x="936" y="224" width="16" height="16"/>
  <object id="66" name="seto_top" type="" gid="33" x="936" y="208" width="16" height="16"/>
  <object id="68" name="seto" type="" gid="31" x="952" y="224" width="16" height="16"/>
  <object id="69" name="seto_top" type="" gid="33" x="952" y="208" width="16" height="16"/>
  <object id="71" name="seto" type="" gid="31" x="968" y="224" width="16" height="16"/>
  <object id="72" name="seto_top" type="" gid="33" x="968" y="208" width="16" height="16"/>
  <object id="74" name="seto" type="" gid="31" x="984" y="224" width="16" height="16"/>
  <object id="75" name="seto_top" type="" gid="33" x="984" y="208" width="16" height="16"/>
  <object id="77" name="seto" type="" gid="31" x="1000" y="224" width="16" height="16"/>
  <object id="78" name="seto_top" type="" gid="33" x="1000" y="208" width="16" height="16"/>
  <object id="80" name="seto" type="" gid="31" x="1016" y="224" width="16" height="16"/>
  <object id="81" name="seto_top" type="" gid="33" x="1016" y="208" width="16" height="16"/>
  <object id="83" name="seto" type="" gid="31" x="1032" y="224" width="16" height="16"/>
  <object id="84" name="seto_top" type="" gid="33" x="1032" y="208" width="16" height="16"/>
  <object id="86" name="seto" type="" gid="31" x="1048" y="224" width="16" height="16"/>
  <object id="87" name="seto_top" type="" gid="33" x="1048" y="208" width="16" height="16"/>
  <object id="89" name="seto" type="" gid="31" x="1064" y="224" width="16" height="16"/>
  <object id="90" name="seto_top" type="" gid="33" x="1064" y="208" width="16" height="16"/>
  <object id="92" name="seto" type="" gid="31" x="1080" y="224" width="16" height="16"/>
  <object id="93" name="seto_top" type="" gid="33" x="1080" y="208" width="16" height="16"/>
  <object id="95" name="seto" type="" gid="31" x="1096" y="224" width="16" height="16"/>
  <object id="96" name="seto_top" type="" gid="33" x="1096" y="208" width="16" height="16"/>
  <object id="98" name="seto" type="" gid="31" x="1112" y="224" width="16" height="16"/>
  <object id="99" name="seto_top" type="" gid="33" x="1112" y="208" width="16" height="16"/>
  <object id="101" name="seto" type="" gid="31" x="1128" y="224" width="16" height="16"/>
  <object id="102" name="seto_top" type="" gid="33" x="1128" y="208" width="16" height="16"/>
  <object id="104" name="seto" type="" gid="31" x="1144" y="224" width="16" height="16"/>
  <object id="105" name="seto_top" type="" gid="33" x="1144" y="208" width="16" height="16"/>
  <object id="107" name="seto" type="" gid="31" x="1160" y="224" width="16" height="16"/>
  <object id="108" name="seto_top" type="" gid="33" x="1160" y="208" width="16" height="16"/>
  <object id="110" name="seto" type="" gid="31" x="1176" y="224" width="16" height="16"/>
  <object id="111" name="seto_top" type="" gid="33" x="1176" y="208" width="16" height="16"/>
  <object id="113" name="seto" type="" gid="31" x="1192" y="224" width="16" height="16"/>
  <object id="114" name="seto_top" type="" gid="33" x="1192" y="208" width="16" height="16"/>
  <object id="116" name="seto" type="" gid="31" x="1208" y="224" width="16" height="16"/>
  <object id="117" name="seto_top" type="" gid="33" x="1208" y="208" width="16" height="16"/>
  <object id="119" name="seto" type="" gid="31" x="1224" y="224" width="16" height="16"/>
  <object id="120" name="seto_top" type="" gid="33" x="1224" y="208" width="16" height="16"/>
  <object id="122" name="seto" type="" gid="31" x="1240" y="224" width="16" height="16"/>
  <object id="123" name="seto_top" type="" gid="33" x="1240" y="208" width="16" height="16"/>
  <object id="125" name="seto" type="" gid="31" x="1256" y="224" width="16" height="16"/>
  <object id="126" name="seto_top" type="" gid="33" x="1256" y="208" width="16" height="16"/>
  <object id="128" name="seto" type="" gid="31" x="1272" y="224" width="16" height="16"/>
  <object id="129" name="seto_top" type="" gid="33" x="1272" y="208" width="16" height="16"/>
  <object id="131" name="seto" type="" gid="31" x="1288" y="224" width="16" height="16"/>
  <object id="132" name="seto_top" type="" gid="33" x="1288" y="208" width="16" height="16"/>
  <object id="134" name="seto" type="" gid="31" x="700" y="240" width="16" height="16"/>
  <object id="135" name="seto" type="" gid="31" x="700" y="256" width="16" height="16"/>
  <object id="136" name="seto_top" type="" gid="33" x="700" y="224" width="16" height="16"/>
  <object id="138" name="seto" type="" gid="31" x="800" y="256" width="16" height="16"/>
  <object id="139" name="seto" type="" gid="31" x="800" y="272" width="16" height="16"/>
  <object id="140" name="seto_top" type="" gid="33" x="800" y="240" width="16" height="16"/>
  <object id="142" name="seto" type="" gid="31" x="900" y="240" width="16" height="16"/>
  <object id="143" name="seto" type="" gid="31" x="900" y="256" width="16" height="16"/>
  <object id="144" name="seto_top" type="" gid="33" x="900" y="224" width="16" height="16"/>
  <object id="146" name="seto" type="" gid="31" x="1000" y="256" width="16" height="16"/>
  <object id="147" name="seto" type="" gid="31" x="1000" y="272" width="16" height="16"/>
  <object id="148" name="seto_top" type="" gid="33" x="1000" y="240" width="16" height="16"/>
  <object id="150" name="seto" type="" gid="31" x="1100" y="240" width="16" height="16"/>
  <object id="151" name="seto" type="" gid="31" x="1100" y="256" width="16" height="16"/>
  <object id="152" name="seto_top" type="" gid="33" x="1100" y="224" width="16" height="16"/>
  <object id="154" name="seto" type="" gid="31" x="1200" y="256" width="16" height="16"/>
  <object id="155" name="seto" type="" gid="31" x="1200" y="272" width="16" height="16"/>
  <object id="156" name="seto_top" type="" gid="33" x="1200" y="240" width="16" height="16"/>
  <object id="158" name="valla" type="" gid="35" x="727" y="214" width="16" height="16"/>
  <object id="160" name="valla" type="" gid="35" x="887" y="214" width="16" height="16"/>
  <object id="162" name="valla" type="" gid="35" x="1047" y="214" width="16" height="16"/>
  <object id="164" name="valla" type="" gid="35" x="1207" y="214" width="16" height="16"/>
  <object id="170" name="baranda" type="" gid="34" x="1488" y="176" width="16" height="16"/>
  <object id="171" name="baranda" type="" gid="34" x="1520" y="176" width="16" height="16"/>
  <object id="172" name="baranda" type="" gid="34" x="1552" y="176" width="16" height="16"/>
  <object id="173" name="baranda" type="" gid="34" x="1584" y="176" width="16" height="16"/>
  <object id="174" name="baranda" type="" gid="34" x="1616" y="176" width="16" height="16"/>
  <object id="175" name="baranda" type="" gid="34" x="1648" y="176" width="16" height="16"/>
  <object id="176" name="baranda" type="" gid="34" x="1680" y="176" width="16" height="16"/>
  <object id="177" name="baranda" type="" gid="34" x="1712" y="176" width="16" height="16"/>
  <object id="178" name="baranda" type="" gid="34" x="1744" y="176" width="16" height="16"/>
  <object id="179" name="baranda" type="" gid="34" x="1776" y="176" width="16" height="16"/>
  <object id="180" name="baranda" type="" gid="34" x="1808" y="176" width="16" height="16"/>
  <object id="181" name="baranda" type="" gid="34" x="1840" y="176" width="16" height="16"/>
  <object id="182" name="baranda" type="" gid="34" x="1872" y="176" width="16" height="16"/>
  <object id="183" name="baranda" type="" gid="34" x="1904" y="176" width="16" height="16"/>
  <object id="184" name="baranda" type="" gid="34" x="1936" y="176" width="16" height="16"/>
 </objectgroup>
 <objectgroup id="7" name="props_frente">
 </objectgroup>
 <objectgroup id="8" name="colision">
  <object id="1" name="split600" type="seto" x="600" y="212" width="16" height="12">
   <properties>
    <property name="alto" type="int" value="999"/>
   </properties>
  </object>
  <object id="4" name="split616" type="seto" x="616" y="212" width="16" height="12">
   <properties>
    <property name="alto" type="int" value="999"/>
   </properties>
  </object>
  <object id="7" name="split632" type="seto" x="632" y="212" width="16" height="12">
   <properties>
    <property name="alto" type="int" value="999"/>
   </properties>
  </object>
  <object id="10" name="split648" type="seto" x="648" y="212" width="16" height="12">
   <properties>
    <property name="alto" type="int" value="999"/>
   </properties>
  </object>
  <object id="13" name="split664" type="seto" x="664" y="212" width="16" height="12">
   <properties>
    <property name="alto" type="int" value="999"/>
   </properties>
  </object>
  <object id="16" name="split680" type="seto" x="680" y="212" width="16" height="12">
   <properties>
    <property name="alto" type="int" value="999"/>
   </properties>
  </object>
  <object id="19" name="split696" type="seto" x="696" y="212" width="16" height="12">
   <properties>
    <property name="alto" type="int" value="999"/>
   </properties>
  </object>
  <object id="22" name="split712" type="seto" x="712" y="212" width="16" height="12">
   <properties>
    <property name="alto" type="int" value="999"/>
   </properties>
  </object>
  <object id="25" name="split728" type="seto" x="728" y="212" width="16" height="12">
   <properties>
    <property name="alto" type="int" value="999"/>
   </properties>
  </object>
  <object id="28" name="split744" type="seto" x="744" y="212" width="16" height="12">
   <properties>
    <property name="alto" type="int" value="999"/>
   </properties>
  </object>
  <object id="31" name="split760" type="seto" x="760" y="212" width="16" height="12">
   <properties>
    <property name="alto" type="int" value="999"/>
   </properties>
  </object>
  <object id="34" name="split776" type="seto" x="776" y="212" width="16" height="12">
   <properties>
    <property name="alto" type="int" value="999"/>
   </properties>
  </object>
  <object id="37" name="split792" type="seto" x="792" y="212" width="16" height="12">
   <properties>
    <property name="alto" type="int" value="999"/>
   </properties>
  </object>
  <object id="40" name="split808" type="seto" x="808" y="212" width="16" height="12">
   <properties>
    <property name="alto" type="int" value="999"/>
   </properties>
  </object>
  <object id="43" name="split824" type="seto" x="824" y="212" width="16" height="12">
   <properties>
    <property name="alto" type="int" value="999"/>
   </properties>
  </object>
  <object id="46" name="split840" type="seto" x="840" y="212" width="16" height="12">
   <properties>
    <property name="alto" type="int" value="999"/>
   </properties>
  </object>
  <object id="49" name="split856" type="seto" x="856" y="212" width="16" height="12">
   <properties>
    <property name="alto" type="int" value="999"/>
   </properties>
  </object>
  <object id="52" name="split872" type="seto" x="872" y="212" width="16" height="12">
   <properties>
    <property name="alto" type="int" value="999"/>
   </properties>
  </object>
  <object id="55" name="split888" type="seto" x="888" y="212" width="16" height="12">
   <properties>
    <property name="alto" type="int" value="999"/>
   </properties>
  </object>
  <object id="58" name="split904" type="seto" x="904" y="212" width="16" height="12">
   <properties>
    <property name="alto" type="int" value="999"/>
   </properties>
  </object>
  <object id="61" name="split920" type="seto" x="920" y="212" width="16" height="12">
   <properties>
    <property name="alto" type="int" value="999"/>
   </properties>
  </object>
  <object id="64" name="split936" type="seto" x="936" y="212" width="16" height="12">
   <properties>
    <property name="alto" type="int" value="999"/>
   </properties>
  </object>
  <object id="67" name="split952" type="seto" x="952" y="212" width="16" height="12">
   <properties>
    <property name="alto" type="int" value="999"/>
   </properties>
  </object>
  <object id="70" name="split968" type="seto" x="968" y="212" width="16" height="12">
   <properties>
    <property name="alto" type="int" value="999"/>
   </properties>
  </object>
  <object id="73" name="split984" type="seto" x="984" y="212" width="16" height="12">
   <properties>
    <property name="alto" type="int" value="999"/>
   </properties>
  </object>
  <object id="76" name="split1000" type="seto" x="1000" y="212" width="16" height="12">
   <properties>
    <property name="alto" type="int" value="999"/>
   </properties>
  </object>
  <object id="79" name="split1016" type="seto" x="1016" y="212" width="16" height="12">
   <properties>
    <property name="alto" type="int" value="999"/>
   </properties>
  </object>
  <object id="82" name="split1032" type="seto" x="1032" y="212" width="16" height="12">
   <properties>
    <property name="alto" type="int" value="999"/>
   </properties>
  </object>
  <object id="85" name="split1048" type="seto" x="1048" y="212" width="16" height="12">
   <properties>
    <property name="alto" type="int" value="999"/>
   </properties>
  </object>
  <object id="88" name="split1064" type="seto" x="1064" y="212" width="16" height="12">
   <properties>
    <property name="alto" type="int" value="999"/>
   </properties>
  </object>
  <object id="91" name="split1080" type="seto" x="1080" y="212" width="16" height="12">
   <properties>
    <property name="alto" type="int" value="999"/>
   </properties>
  </object>
  <object id="94" name="split1096" type="seto" x="1096" y="212" width="16" height="12">
   <properties>
    <property name="alto" type="int" value="999"/>
   </properties>
  </object>
  <object id="97" name="split1112" type="seto" x="1112" y="212" width="16" height="12">
   <properties>
    <property name="alto" type="int" value="999"/>
   </properties>
  </object>
  <object id="100" name="split1128" type="seto" x="1128" y="212" width="16" height="12">
   <properties>
    <property name="alto" type="int" value="999"/>
   </properties>
  </object>
  <object id="103" name="split1144" type="seto" x="1144" y="212" width="16" height="12">
   <properties>
    <property name="alto" type="int" value="999"/>
   </properties>
  </object>
  <object id="106" name="split1160" type="seto" x="1160" y="212" width="16" height="12">
   <properties>
    <property name="alto" type="int" value="999"/>
   </properties>
  </object>
  <object id="109" name="split1176" type="seto" x="1176" y="212" width="16" height="12">
   <properties>
    <property name="alto" type="int" value="999"/>
   </properties>
  </object>
  <object id="112" name="split1192" type="seto" x="1192" y="212" width="16" height="12">
   <properties>
    <property name="alto" type="int" value="999"/>
   </properties>
  </object>
  <object id="115" name="split1208" type="seto" x="1208" y="212" width="16" height="12">
   <properties>
    <property name="alto" type="int" value="999"/>
   </properties>
  </object>
  <object id="118" name="split1224" type="seto" x="1224" y="212" width="16" height="12">
   <properties>
    <property name="alto" type="int" value="999"/>
   </properties>
  </object>
  <object id="121" name="split1240" type="seto" x="1240" y="212" width="16" height="12">
   <properties>
    <property name="alto" type="int" value="999"/>
   </properties>
  </object>
  <object id="124" name="split1256" type="seto" x="1256" y="212" width="16" height="12">
   <properties>
    <property name="alto" type="int" value="999"/>
   </properties>
  </object>
  <object id="127" name="split1272" type="seto" x="1272" y="212" width="16" height="12">
   <properties>
    <property name="alto" type="int" value="999"/>
   </properties>
  </object>
  <object id="130" name="split1288" type="seto" x="1288" y="212" width="16" height="12">
   <properties>
    <property name="alto" type="int" value="999"/>
   </properties>
  </object>
  <object id="133" name="slalom0" type="seto" x="700" y="224" width="12" height="32">
   <properties>
    <property name="alto" type="int" value="999"/>
   </properties>
  </object>
  <object id="137" name="slalom1" type="seto" x="800" y="240" width="12" height="32">
   <properties>
    <property name="alto" type="int" value="999"/>
   </properties>
  </object>
  <object id="141" name="slalom2" type="seto" x="900" y="224" width="12" height="32">
   <properties>
    <property name="alto" type="int" value="999"/>
   </properties>
  </object>
  <object id="145" name="slalom3" type="seto" x="1000" y="240" width="12" height="32">
   <properties>
    <property name="alto" type="int" value="999"/>
   </properties>
  </object>
  <object id="149" name="slalom4" type="seto" x="1100" y="224" width="12" height="32">
   <properties>
    <property name="alto" type="int" value="999"/>
   </properties>
  </object>
  <object id="153" name="slalom5" type="seto" x="1200" y="240" width="12" height="32">
   <properties>
    <property name="alto" type="int" value="999"/>
   </properties>
  </object>
  <object id="157" name="valla730" type="valla" x="730" y="178" width="10" height="36">
   <properties>
    <property name="alto" type="int" value="18"/>
    <property name="light" type="bool" value="true"/>
   </properties>
  </object>
  <object id="159" name="valla890" type="valla" x="890" y="178" width="10" height="36">
   <properties>
    <property name="alto" type="int" value="18"/>
    <property name="light" type="bool" value="true"/>
   </properties>
  </object>
  <object id="161" name="valla1050" type="valla" x="1050" y="178" width="10" height="36">
   <properties>
    <property name="alto" type="int" value="18"/>
    <property name="light" type="bool" value="true"/>
   </properties>
  </object>
  <object id="163" name="valla1210" type="valla" x="1210" y="178" width="10" height="36">
   <properties>
    <property name="alto" type="int" value="18"/>
    <property name="light" type="bool" value="true"/>
   </properties>
  </object>
  <object id="165" name="seta790" type="plataforma" x="790" y="184" width="28" height="24">
   <properties>
    <property name="alto" type="int" value="20"/>
   </properties>
  </object>
  <object id="166" name="seta950" type="plataforma" x="950" y="184" width="28" height="24">
   <properties>
    <property name="alto" type="int" value="20"/>
   </properties>
  </object>
  <object id="167" name="seta1110" type="plataforma" x="1110" y="184" width="28" height="24">
   <properties>
    <property name="alto" type="int" value="20"/>
   </properties>
  </object>
  <object id="168" name="puente" type="puente" x="1488" y="176" width="464" height="32">
   <properties>
    <property name="alto" type="int" value="2"/>
   </properties>
  </object>
  <object id="187" name="escalon0" type="plataforma" x="2300" y="196" width="30" height="44">
   <properties>
    <property name="alto" type="int" value="10"/>
   </properties>
  </object>
  <object id="188" name="escalon1" type="plataforma" x="2330" y="196" width="30" height="44">
   <properties>
    <property name="alto" type="int" value="20"/>
   </properties>
  </object>
  <object id="189" name="escalon2" type="plataforma" x="2360" y="196" width="30" height="44">
   <properties>
    <property name="alto" type="int" value="20"/>
   </properties>
  </object>
 </objectgroup>
 <objectgroup id="9" name="plataformas">
 </objectgroup>
 <objectgroup id="10" name="agua">
  <object id="169" name="rio" type="agua" x="1488" y="208" width="464" height="64">
   <properties>
    <property name="corriente" type="float" value="10.0"/>
   </properties>
  </object>
 </objectgroup>
 <objectgroup id="11" name="huecos">
  <object id="192" name="atajo" type="hueco" x="2560" y="176" width="44" height="40"/>
 </objectgroup>
 <objectgroup id="12" name="rebote">
  <object id="190" name="hongo1" type="rebote" x="2500" y="218" width="24" height="12">
   <properties>
    <property name="fuerza" type="float" value="380.0"/>
   </properties>
  </object>
  <object id="191" name="hongo2" type="rebote" x="2650" y="242" width="24" height="12">
   <properties>
    <property name="fuerza" type="float" value="380.0"/>
   </properties>
  </object>
 </objectgroup>
 <objectgroup id="13" name="moviles">
  <object id="185" name="tronco1" type="tronco" x="1500" y="178" width="20" height="28">
   <properties>
    <property name="alto" type="int" value="12"/>
    <property name="x0" type="int" value="1488"/>
    <property name="x1" type="int" value="1952"/>
    <property name="speed" type="float" value="55.0"/>
    <property name="period" type="float" value="0.0"/>
    <property name="phase" type="float" value="0.0"/>
    <property name="warn" type="float" value="0.8"/>
   </properties>
  </object>
  <object id="186" name="tronco2" type="tronco" x="1500" y="178" width="20" height="28">
   <properties>
    <property name="alto" type="int" value="12"/>
    <property name="x0" type="int" value="1488"/>
    <property name="x1" type="int" value="1952"/>
    <property name="speed" type="float" value="55.0"/>
    <property name="period" type="float" value="0.0"/>
    <property name="phase" type="float" value="0.5"/>
    <property name="warn" type="float" value="0.8"/>
   </properties>
  </object>
 </objectgroup>
 <objectgroup id="14" name="checkpoints">
  <object id="194" name="arco1" type="arco" x="560" y="224">
   <properties>
    <property name="orden" type="int" value="1"/>
    <property name="zona"  value="Pradera"/>
   </properties>
   <point/>
  </object>
  <object id="195" name="arco2" type="arco" x="1450" y="224">
   <properties>
    <property name="orden" type="int" value="2"/>
    <property name="zona"  value="Rio"/>
   </properties>
   <point/>
  </object>
  <object id="196" name="arco3" type="arco" x="2190" y="224">
   <properties>
    <property name="orden" type="int" value="3"/>
    <property name="zona"  value="Colina"/>
   </properties>
   <point/>
  </object>
 </objectgroup>
 <objectgroup id="15" name="salidas">
  <object id="197" name="salida0" type="salida" x="40" y="194">
   <properties>
    <property name="slot" type="int" value="0"/>
   </properties>
   <point/>
  </object>
  <object id="198" name="salida1" type="salida" x="40" y="214">
   <properties>
    <property name="slot" type="int" value="1"/>
   </properties>
   <point/>
  </object>
  <object id="199" name="salida2" type="salida" x="40" y="234">
   <properties>
    <property name="slot" type="int" value="2"/>
   </properties>
   <point/>
  </object>
  <object id="200" name="salida3" type="salida" x="40" y="254">
   <properties>
    <property name="slot" type="int" value="3"/>
   </properties>
   <point/>
  </object>
 </objectgroup>
 <objectgroup id="16" name="meta">
  <object id="193" name="meta" type="meta" x="3250" y="176" width="16" height="96"/>
 </objectgroup>
 <objectgroup id="17" name="rutas_ia">
  <object id="228" name="n0" type="nodo" x="100" y="224">
   <properties>
    <property name="id"  value="n0"/>
    <property name="tipo"  value="principal"/>
    <property name="siguiente"  value="n1:1"/>
    <property name="salta" type="bool" value="false"/>
   </properties>
   <point/>
  </object>
  <object id="229" name="n1" type="nodo" x="480" y="224">
   <properties>
    <property name="id"  value="n1"/>
    <property name="tipo"  value="principal"/>
    <property name="siguiente"  value="f1:1"/>
    <property name="salta" type="bool" value="false"/>
   </properties>
   <point/>
  </object>
  <object id="230" name="f1" type="nodo" x="520" y="224">
   <properties>
    <property name="id"  value="f1"/>
    <property name="tipo"  value="principal"/>
    <property name="siguiente"  value="t0:1,b0:1"/>
    <property name="salta" type="bool" value="false"/>
   </properties>
   <point/>
  </object>
  <object id="231" name="t0" type="nodo" x="585" y="196">
   <properties>
    <property name="id"  value="t0"/>
    <property name="tipo"  value="atajo"/>
    <property name="siguiente"  value="t1:1"/>
    <property name="salta" type="bool" value="false"/>
   </properties>
   <point/>
  </object>
  <object id="232" name="b0" type="nodo" x="585" y="246">
   <properties>
    <property name="id"  value="b0"/>
    <property name="tipo"  value="principal"/>
    <property name="siguiente"  value="b1:1"/>
    <property name="salta" type="bool" value="false"/>
   </properties>
   <point/>
  </object>
  <object id="233" name="t1" type="nodo" x="650" y="196">
   <properties>
    <property name="id"  value="t1"/>
    <property name="tipo"  value="atajo"/>
    <property name="siguiente"  value="t2:1"/>
    <property name="salta" type="bool" value="false"/>
   </properties>
   <point/>
  </object>
  <object id="234" name="t2" type="nodo" x="770" y="196">
   <properties>
    <property name="id"  value="t2"/>
    <property name="tipo"  value="atajo"/>
    <property name="siguiente"  value="t3:1"/>
    <property name="salta" type="bool" value="false"/>
   </properties>
   <point/>
  </object>
  <object id="235" name="t3" type="nodo" x="930" y="196">
   <properties>
    <property name="id"  value="t3"/>
    <property name="tipo"  value="atajo"/>
    <property name="siguiente"  value="t4:1"/>
    <property name="salta" type="bool" value="false"/>
   </properties>
   <point/>
  </object>
  <object id="236" name="t4" type="nodo" x="1090" y="196">
   <properties>
    <property name="id"  value="t4"/>
    <property name="tipo"  value="atajo"/>
    <property name="siguiente"  value="t5:1"/>
    <property name="salta" type="bool" value="false"/>
   </properties>
   <point/>
  </object>
  <object id="237" name="t5" type="nodo" x="1240" y="196">
   <properties>
    <property name="id"  value="t5"/>
    <property name="tipo"  value="atajo"/>
    <property name="siguiente"  value="t6:1"/>
    <property name="salta" type="bool" value="false"/>
   </properties>
   <point/>
  </object>
  <object id="238" name="t6" type="nodo" x="1340" y="196">
   <properties>
    <property name="id"  value="t6"/>
    <property name="tipo"  value="atajo"/>
    <property name="siguiente"  value="m1:1"/>
    <property name="salta" type="bool" value="false"/>
   </properties>
   <point/>
  </object>
  <object id="239" name="b1" type="nodo" x="650" y="240">
   <properties>
    <property name="id"  value="b1"/>
    <property name="tipo"  value="principal"/>
    <property name="siguiente"  value="b2:1"/>
    <property name="salta" type="bool" value="false"/>
   </properties>
   <point/>
  </object>
  <object id="240" name="b2" type="nodo" x="700" y="264">
   <properties>
    <property name="id"  value="b2"/>
    <property name="tipo"  value="principal"/>
    <property name="siguiente"  value="b3:1"/>
    <property name="salta" type="bool" value="false"/>
   </properties>
   <point/>
  </object>
  <object id="241" name="b3" type="nodo" x="800" y="232">
   <properties>
    <property name="id"  value="b3"/>
    <property name="tipo"  value="principal"/>
    <property name="siguiente"  value="b4:1"/>
    <property name="salta" type="bool" value="false"/>
   </properties>
   <point/>
  </object>
  <object id="242" name="b4" type="nodo" x="900" y="264">
   <properties>
    <property name="id"  value="b4"/>
    <property name="tipo"  value="principal"/>
    <property name="siguiente"  value="b5:1"/>
    <property name="salta" type="bool" value="false"/>
   </properties>
   <point/>
  </object>
  <object id="243" name="b5" type="nodo" x="1000" y="232">
   <properties>
    <property name="id"  value="b5"/>
    <property name="tipo"  value="principal"/>
    <property name="siguiente"  value="b6:1"/>
    <property name="salta" type="bool" value="false"/>
   </properties>
   <point/>
  </object>
  <object id="244" name="b6" type="nodo" x="1100" y="264">
   <properties>
    <property name="id"  value="b6"/>
    <property name="tipo"  value="principal"/>
    <property name="siguiente"  value="b7:1"/>
    <property name="salta" type="bool" value="false"/>
   </properties>
   <point/>
  </object>
  <object id="245" name="b7" type="nodo" x="1200" y="232">
   <properties>
    <property name="id"  value="b7"/>
    <property name="tipo"  value="principal"/>
    <property name="siguiente"  value="b8:1"/>
    <property name="salta" type="bool" value="false"/>
   </properties>
   <point/>
  </object>
  <object id="246" name="b8" type="nodo" x="1340" y="240">
   <properties>
    <property name="id"  value="b8"/>
    <property name="tipo"  value="principal"/>
    <property name="siguiente"  value="m1:1"/>
    <property name="salta" type="bool" value="false"/>
   </properties>
   <point/>
  </object>
  <object id="247" name="m1" type="nodo" x="1410" y="224">
   <properties>
    <property name="id"  value="m1"/>
    <property name="tipo"  value="principal"/>
    <property name="siguiente"  value="w1:1,br1:1"/>
    <property name="salta" type="bool" value="false"/>
   </properties>
   <point/>
  </object>
  <object id="248" name="w1" type="nodo" x="1500" y="232">
   <properties>
    <property name="id"  value="w1"/>
    <property name="tipo"  value="agua"/>
    <property name="siguiente"  value="w2:1"/>
    <property name="salta" type="bool" value="false"/>
   </properties>
   <point/>
  </object>
  <object id="249" name="w2" type="nodo" x="1720" y="232">
   <properties>
    <property name="id"  value="w2"/>
    <property name="tipo"  value="agua"/>
    <property name="siguiente"  value="w3:1"/>
    <property name="salta" type="bool" value="false"/>
   </properties>
   <point/>
  </object>
  <object id="250" name="w3" type="nodo" x="1960" y="232">
   <properties>
    <property name="id"  value="w3"/>
    <property name="tipo"  value="agua"/>
    <property name="siguiente"  value="e1:1"/>
    <property name="salta" type="bool" value="false"/>
   </properties>
   <point/>
  </object>
  <object id="251" name="br1" type="nodo" x="1494" y="192">
   <properties>
    <property name="id"  value="br1"/>
    <property name="tipo"  value="facil"/>
    <property name="siguiente"  value="br2:1"/>
    <property name="salta" type="bool" value="false"/>
   </properties>
   <point/>
  </object>
  <object id="252" name="br2" type="nodo" x="1720" y="192">
   <properties>
    <property name="id"  value="br2"/>
    <property name="tipo"  value="facil"/>
    <property name="siguiente"  value="br3:1"/>
    <property name="salta" type="bool" value="false"/>
   </properties>
   <point/>
  </object>
  <object id="253" name="br3" type="nodo" x="1960" y="192">
   <properties>
    <property name="id"  value="br3"/>
    <property name="tipo"  value="facil"/>
    <property name="siguiente"  value="e1:1"/>
    <property name="salta" type="bool" value="false"/>
   </properties>
   <point/>
  </object>
  <object id="254" name="e1" type="nodo" x="2010" y="224">
   <properties>
    <property name="id"  value="e1"/>
    <property name="tipo"  value="principal"/>
    <property name="siguiente"  value="h1:1"/>
    <property name="salta" type="bool" value="false"/>
   </properties>
   <point/>
  </object>
  <object id="255" name="h1" type="nodo" x="2250" y="224">
   <properties>
    <property name="id"  value="h1"/>
    <property name="tipo"  value="principal"/>
    <property name="siguiente"  value="h2:1"/>
    <property name="salta" type="bool" value="false"/>
   </properties>
   <point/>
  </object>
  <object id="256" name="h2" type="nodo" x="2440" y="224">
   <properties>
    <property name="id"  value="h2"/>
    <property name="tipo"  value="principal"/>
    <property name="siguiente"  value="h3:1,h3b:1"/>
    <property name="salta" type="bool" value="false"/>
   </properties>
   <point/>
  </object>
  <object id="257" name="h3" type="nodo" x="2540" y="196">
   <properties>
    <property name="id"  value="h3"/>
    <property name="tipo"  value="atajo"/>
    <property name="siguiente"  value="h3c:1"/>
    <property name="salta" type="bool" value="false"/>
   </properties>
   <point/>
  </object>
  <object id="258" name="h3c" type="nodo" x="2650" y="196">
   <properties>
    <property name="id"  value="h3c"/>
    <property name="tipo"  value="atajo"/>
    <property name="siguiente"  value="h4:1"/>
    <property name="salta" type="bool" value="false"/>
   </properties>
   <point/>
  </object>
  <object id="259" name="h3b" type="nodo" x="2540" y="248">
   <properties>
    <property name="id"  value="h3b"/>
    <property name="tipo"  value="principal"/>
    <property name="siguiente"  value="h3d:1"/>
    <property name="salta" type="bool" value="false"/>
   </properties>
   <point/>
  </object>
  <object id="260" name="h3d" type="nodo" x="2650" y="248">
   <properties>
    <property name="id"  value="h3d"/>
    <property name="tipo"  value="principal"/>
    <property name="siguiente"  value="h4:1"/>
    <property name="salta" type="bool" value="false"/>
   </properties>
   <point/>
  </object>
  <object id="261" name="h4" type="nodo" x="2730" y="224">
   <properties>
    <property name="id"  value="h4"/>
    <property name="tipo"  value="principal"/>
    <property name="siguiente"  value="p1:1"/>
    <property name="salta" type="bool" value="false"/>
   </properties>
   <point/>
  </object>
  <object id="262" name="p1" type="nodo" x="2900" y="224">
   <properties>
    <property name="id"  value="p1"/>
    <property name="tipo"  value="principal"/>
    <property name="siguiente"  value="pg:1"/>
    <property name="salta" type="bool" value="false"/>
   </properties>
   <point/>
  </object>
  <object id="263" name="pg" type="nodo" x="3290" y="224">
   <properties>
    <property name="id"  value="pg"/>
    <property name="tipo"  value="principal"/>
    <property name="siguiente"  value=""/>
    <property name="salta" type="bool" value="false"/>
   </properties>
   <point/>
  </object>
 </objectgroup>
 <objectgroup id="18" name="activadores">
 </objectgroup>
 <objectgroup id="19" name="objetos">
  <object id="206" name="pelota" type="pelota" x="300" y="216">
   <point/>
  </object>
  <object id="207" name="pelota" type="pelota" x="330" y="242">
   <point/>
  </object>
  <object id="208" name="pelota" type="pelota" x="1060" y="230">
   <point/>
  </object>
  <object id="209" name="pelota" type="pelota" x="2340" y="230">
   <point/>
  </object>
  <object id="210" name="pelota" type="pelota" x="2420" y="212">
   <point/>
  </object>
  <object id="211" name="pelota" type="pelota" x="2790" y="230">
   <point/>
  </object>
  <object id="212" name="pelota" type="pelota" x="3050" y="214">
   <point/>
  </object>
  <object id="213" name="estrella" type="estrella" x="740" y="196">
   <properties>
    <property name="z" type="int" value="10"/>
   </properties>
   <point/>
  </object>
  <object id="214" name="estrella" type="estrella" x="800" y="196">
   <properties>
    <property name="z" type="int" value="28"/>
   </properties>
   <point/>
  </object>
  <object id="215" name="estrella" type="estrella" x="960" y="196">
   <properties>
    <property name="z" type="int" value="28"/>
   </properties>
   <point/>
  </object>
  <object id="216" name="estrella" type="estrella" x="1120" y="196">
   <properties>
    <property name="z" type="int" value="28"/>
   </properties>
   <point/>
  </object>
  <object id="217" name="estrella" type="estrella" x="1300" y="196">
   <properties>
    <property name="z" type="int" value="8"/>
   </properties>
   <point/>
  </object>
  <object id="218" name="estrella" type="estrella" x="2640" y="196">
   <properties>
    <property name="z" type="int" value="10"/>
   </properties>
   <point/>
  </object>
  <object id="219" name="estrella" type="estrella" x="2680" y="196">
   <properties>
    <property name="z" type="int" value="10"/>
   </properties>
   <point/>
  </object>
  <object id="220" name="estrella" type="estrella" x="1700" y="192">
   <properties>
    <property name="z" type="int" value="8"/>
   </properties>
   <point/>
  </object>
  <object id="221" name="estrella" type="estrella" x="1850" y="192">
   <properties>
    <property name="z" type="int" value="8"/>
   </properties>
   <point/>
  </object>
  <object id="222" name="estrella" type="estrella" x="450" y="224">
   <properties>
    <property name="z" type="int" value="6"/>
   </properties>
   <point/>
  </object>
  <object id="223" name="estrella" type="estrella" x="2000" y="224">
   <properties>
    <property name="z" type="int" value="6"/>
   </properties>
   <point/>
  </object>
  <object id="224" name="estrella" type="estrella" x="3000" y="224">
   <properties>
    <property name="z" type="int" value="6"/>
   </properties>
   <point/>
  </object>
  <object id="225" name="caja" type="caja" x="880" y="200">
   <point/>
  </object>
  <object id="226" name="caja" type="caja" x="2450" y="224">
   <point/>
  </object>
  <object id="227" name="caja" type="caja" x="1290" y="236">
   <point/>
  </object>
 </objectgroup>
 <objectgroup id="20" name="salas">
 </objectgroup>
 <objectgroup id="21" name="zonas">
  <object id="201" name="Pradera de salida" type="zona" x="0" y="176" width="520" height="96">
   <properties>
    <property name="orden" type="int" value="1"/>
   </properties>
  </object>
  <object id="202" name="Jardín de las casitas" type="zona" x="520" y="176" width="904" height="96">
   <properties>
    <property name="orden" type="int" value="2"/>
   </properties>
  </object>
  <object id="203" name="Río Cristal" type="zona" x="1424" y="176" width="756" height="96">
   <properties>
    <property name="orden" type="int" value="3"/>
   </properties>
  </object>
  <object id="204" name="Colina de los Hongos" type="zona" x="2180" y="176" width="700" height="96">
   <properties>
    <property name="orden" type="int" value="4"/>
   </properties>
  </object>
  <object id="205" name="Plaza de la Meta" type="zona" x="2880" y="176" width="528" height="96">
   <properties>
    <property name="orden" type="int" value="5"/>
   </properties>
  </object>
 </objectgroup>
</map>
